!!!!SEGMENT: pl-sa--398-a-viii--005_luna-georgius--missa-solemnis-benedictus.krn
!!!cenid: 17xx:477
!!!COM: Luna, Georgius
!!!COM-rism: pe41010079
!!!CDT:
!!!CNT:
!!!OTL: Missa Solemnis – Benedictus
!!!PDT:
!!!AGN: Sacred; Mass
!!!SMS-siglum: PL-SA
!!!SMS-shelfmark: 398/A VIII
!!!NIFC-rismID: 1001070172
!!!URL-scan: http://bc.bdsandomierz.pl/dlibra/publication/1511/edition/1479/content
!!!ONB-nifc: UWAGA: części Mszy: Kyrie, Gloria, Credo, Sanctus, Benedictus, Agnus
!!!SMS-variant:
!!!SMS-altvar:
**kern	**fba	**dynam	**kern	**dynam	**kern	**dynam	**kern	**kern	**kern	**kern	**text	**dynam	**kern	**kern
*part9	*	*part9	*part8	*part8	*part7	*part7	*part6	*part5	*part4	*part3	*part3	*part3	*part2	*part1
*	*	*	*group3	*	*group3	*	*group2	*group2	*group2	*group2	*	*	*group1	*group1
*staff9	*	*	*staff8	*	*staff7	*	*staff6	*staff5	*staff4	*staff3	*staff3	*	*staff2	*staff1
*I"Organo.	*	*	*I"Violino Secondo.	*	*I"Violino Primo.	*	*I"Baſso.	*I"Tenore.	*I"Alto.	*I"Canto.	*	*	*I"Clarino 2do. Ex. D.	*I"Clarino 1mo.
*I'org	*	*	*I'vl II	*	*I'vl I	*	*I'B	*I'T	*I'A	*I'C	*	*	*I'clno II	*I'clno I
*clefF4	*	*	*clefG2	*	*clefG2	*	*clefF4	*clefC4	*clefC3	*clefC1	*	*	*clefG2	*clefG2
*	*	*	*	*	*	*	*	*	*	*	*	*	*ITrd-4c-7	*ITrd3c5
*k[f#]	*	*	*k[f#cn]	*	*k[f#cn]	*	*k[f#]	*k[f#]	*k[f#]	*k[f#cn]	*	*	*k[f#]	*k[f#]
*M3/4	*	*	*M3/4	*	*M3/4	*	*M3/4	*M3/4	*M3/4	*M3/4	*	*	*M3/4	*M3/4
=1	=1	=1	=1	=1	=1	=1	=1	=1	=1	=1	=1	=1	=1	=1
*	*	*	*	*	*2\right	*	*	*	*	*	*	*	*	*
!	!	!	!	!	!	!	!	!	!	!LO:TX:a:t=P:problem:przy kluczu znaki ccn i omyłkowo c# (w następnych linijkach już prawidłowo f#)	!	!	!	!
!	!	!	!LO:TX:b:t=Benedictus.	!	!LO:TX:b:t=Benedictus.	!	!	!	!	!	!	!	!	!
!LO:TX:a:t=Andte	!	!	!LO:TX:a:t=Andante	!	!LO:TX:a:t=Andante	!	!LO:TX:a:i:t=Benedicta \ntacet\n Oſſan(n)a ut \nSupra	!LO:TX:a:i:t=Bendi\nctu\nTacet	!LO:TX:a:i:t=Ben&colon; Tacet \nO ſan ut ſup	!	!	!	!LO:TX:a:i:t=Benedictus \nTacet Oſana \nDacapo	!LO:TX:a:i:t=Benedictus Tacet O ſanna \nDaCapo
!	!	!	!	!	!	!	!	!	!	!LO:N:vis=00	!	!	!	!
8r	.	.	8r	.	2.gg\	.	2.ryy	2.ryy	2.ryy	0.r	.	.	2.ryy	2.ryy
!LO:TX:b:t=Benedict(us)	!	!	!	!	!	!	!	!	!	!	!	!	!	!
8G\L|	.	.	8b\L|	.	.	.	.	.	.	.	.	.	.	.
(8B\	.	.	(8dd\	.	.	.	.	.	.	.	.	.	.	.
8G\)	.	.	8b\)	.	.	.	.	.	.	.	.	.	.	.
(8B\	.	.	(8dd\	.	.	.	.	.	.	.	.	.	.	.
8G\J)	.	.	8b\J)	.	.	.	.	.	.	.	.	.	.	.
=2	=2	=2	=2	=2	=2	=2	=2	=2	=2	=2	=2	=2	=2	=2
.	.	.	.	.	8qqdd/	.	.	.	.	.	.	.	.	.
8r	.	.	8r	.	2.cc\	.	2.ryy	2.ryy	2.ryy	.	.	.	2.ryy	2.ryy
8F#\L|	6	.	8a/L|	.	.	.	.	.	.	.	.	.	.	.
(8D\	.	.	(8f#/	.	.	.	.	.	.	.	.	.	.	.
8F#\)	.	.	8a/)	.	.	.	.	.	.	.	.	.	.	.
(8D\	.	.	(8f#/	.	.	.	.	.	.	.	.	.	.	.
8F#\J)	.	.	8a/J)	.	.	.	.	.	.	.	.	.	.	.
=3	=3	=3	=3	=3	=3	=3	=3	=3	=3	=3	=3	=3	=3	=3
4G\	.	.	8g/	.	8b\	.	2.ryy	2.ryy	2.ryy	.	.	.	2.ryy	2.ryy
.	.	.	4a/	.	4cc\	.	.	.	.	.	.	.	.	.
4GG/	.	.	.	.	.	.	.	.	.	.	.	.	.	.
.	.	.	4b/	.	4dd\	.	.	.	.	.	.	.	.	.
4C/	.	.	.	.	.	.	.	.	.	.	.	.	.	.
.	.	.	8g/	.	8ee\	.	.	.	.	.	.	.	.	.
=4	=4	=4	=4	=4	=4	=4	=4	=4	=4	=4	=4	=4	=4	=4
.	.	.	.	.	8qqg/	.	.	.	.	.	.	.	.	.
4D\	.	.	4c/	.	4f#/	.	2.ryy	2.ryy	2.ryy	.	.	.	2.ryy	2.ryy
!LO:TX:a:t=P:problem:mixed beam	!	!	!	!	!	!	!	!	!	!	!	!	!	!
8GG/L	.	.	4B/	.	4g/	.	.	.	.	.	.	.	.	.
8G\	.	.	.	.	.	.	.	.	.	.	.	.	.	.
8D\	.	.	4r	.	4r	.	.	.	.	.	.	.	.	.
8BB\J	.	.	.	.	.	.	.	.	.	.	.	.	.	.
=5	=5	=5	=5	=5	=5	=5	=5	=5	=5	=5	=5	=5	=5	=5
!LO:TX:a:t=P:problem:mixed beam	!	!	!	!	!	!	!	!	!	!	!	!	!	!
!	!	!	!	!	!	!	!	!	!	!LO:N:vis=00	!	!	!	!
8GG/L	.	.	8r	.	2.gg\	.	2.ryy	2.ryy	2.ryy	0.r	.	.	2.ryy	2.ryy
8G\	.	.	8b\L|	.	.	.	.	.	.	.	.	.	.	.
(>8B\	.	.	(8dd\	.	.	.	.	.	.	.	.	.	.	.
8G\)	.	.	8b\)	.	.	.	.	.	.	.	.	.	.	.
(>8B\	.	.	(8dd\	.	.	.	.	.	.	.	.	.	.	.
8G\J)	.	.	8b\J)	.	.	.	.	.	.	.	.	.	.	.
=6	=6	=6	=6	=6	=6	=6	=6	=6	=6	=6	=6	=6	=6	=6
.	.	.	.	.	8qqdd/	.	.	.	.	.	.	.	.	.
8r	.	.	8r	.	2.cc\	.	2.ryy	2.ryy	2.ryy	.	.	.	2.ryy	2.ryy
8F#\L	6_	.	8a/L|	.	.	.	.	.	.	.	.	.	.	.
8D\	.	.	(8f#/	.	.	.	.	.	.	.	.	.	.	.
8F#\	.	.	8a/)	.	.	.	.	.	.	.	.	.	.	.
8D\	.	.	(8f#/	.	.	.	.	.	.	.	.	.	.	.
8F#\J	.	.	8a/J)	.	.	.	.	.	.	.	.	.	.	.
.	X	.	.	.	.	.	.	.	.	.	.	.	.	.
=7	=7	=7	=7	=7	=7	=7	=7	=7	=7	=7	=7	=7	=7	=7
!	!	!	!LO:TX:a:t=P:problem:mixed beam	!	!	!	!	!	!	!	!	!	!	!
4G\	.	.	8g/L	.	8b\L	.	2.ryy	2.ryy	2.ryy	.	.	.	2.ryy	2.ryy
.	.	.	8gg\J	.	8bb\J	.	.	.	.	.	.	.	.	.
!	!	!	!LO:LB:g=original	!	!	!	!	!	!	!	!	!	!	!
4r	.	.	16gg\LL	.	16bb\LL	.	.	.	.	.	.	.	.	.
.	.	.	16ff#\	.	(16aa\	.	.	.	.	.	.	.	.	.
.	.	.	16ee\	.	16gg\	.	.	.	.	.	.	.	.	.
.	.	.	16dd\JJ	.	16ff#\JJ	.	.	.	.	.	.	.	.	.
4GG/	.	.	16cc\LL	.	16ee\LL	.	.	.	.	.	.	.	.	.
.	.	.	16b\	.	16dd\	.	.	.	.	.	.	.	.	.
.	.	.	16a\	.	16cc\	.	.	.	.	.	.	.	.	.
.	.	.	16g\JJ	.	16b\JJ)	.	.	.	.	.	.	.	.	.
=8	=8	=8	=8	=8	=8	=8	=8	=8	=8	=8	=8	=8	=8	=8
.	.	.	8qqa/	.	.	.	.	.	.	.	.	.	.	.
4D\	6 4	.	4g/	.	4b\	.	2.ryy	2.ryy	2.ryy	.	.	.	2.ryy	2.ryy
!LO:TX:a:t=P:problem:mixed beam	!	!	!	!	!	!	!	!	!	!	!	!	!	!
8.DD/L	5 3	.	4f#/	.	4a\	.	.	.	.	.	.	.	.	.
16D\Jk	.	.	.	.	.	.	.	.	.	.	.	.	.	.
8.AA/L	.	.	4r	.	8r	.	.	.	.	.	.	.	.	.
.	.	.	.	.	(8d/	.	.	.	.	.	.	.	.	.
16FF#/Jk	.	.	.	.	.	.	.	.	.	.	.	.	.	.
=9	=9	=9	=9	=9	=9	=9	=9	=9	=9	=9	=9	=9	=9	=9
!	!	!	!	!	!	!	!	!	!	!LO:N:vis=00	!	!	!	!
8r	.	.	8r	.	2.dd\)	.	2.ryy	2.ryy	2.ryy	0.r	.	.	2.ryy	2.ryy
8D\L	.	.	(8f#/L	.	.	.	.	.	.	.	.	.	.	.
8E\	7	.	8g/	.	.	.	.	.	.	.	.	.	.	.
8F#\	6	.	8a/	.	.	.	.	.	.	.	.	.	.	.
8G\	.	.	8b/)	.	.	.	.	.	.	.	.	.	.	.
8G#X\J	5	.	8b/J	.	.	.	.	.	.	.	.	.	.	.
!LO:LB:g=original	!	!	!	!	!	!	!	!	!	!	!	!	!	!
=10	=10	=10	=10	=10	=10	=10	=10	=10	=10	=10	=10	=10	=10	=10
4A\	4	.	8e/	.	8dd\	.	2.ryy	2.ryy	2.ryy	.	.	.	2.ryy	2.ryy
.	#	.	4a/	.	4cc#X\	.	.	.	.	.	.	.	.	.
4A\	.	.	.	.	.	.	.	.	.	.	.	.	.	.
!	!	!	!	!	!LO:LB:g=original	!	!	!	!	!	!	!	!	!
.	.	.	4cc#X/	.	4ee\	.	.	.	.	.	.	.	.	.
4A\	.	.	.	.	.	.	.	.	.	.	.	.	.	.
.	.	.	8ee/	.	8gg\	.	.	.	.	.	.	.	.	.
=11	=11	=11	=11	=11	=11	=11	=11	=11	=11	=11	=11	=11	=11	=11
!	!	!	!LO:TX:a:t=P:problem:mixed beam	!	!	!	!	!	!	!	!	!	!	!
8r	.	.	8dd\L	.	8.ff#\L	.	2.ryy	2.ryy	2.ryy	.	.	.	2.ryy	2.ryy
(8D\L	.	.	(8f#/	.	.	.	.	.	.	.	.	.	.	.
.	.	.	.	.	16aa\Jk	.	.	.	.	.	.	.	.	.
.	.	.	.	.	8qqee/	.	.	.	.	.	.	.	.	.
8E\	.	.	8g/	.	[2dd\	.	.	.	.	.	.	.	.	.
8F#\	.	.	8a/	.	.	.	.	.	.	.	.	.	.	.
8G\)	6	.	8b/)	.	.	.	.	.	.	.	.	.	.	.
8G#X\J	6 5	.	8b/J	.	.	.	.	.	.	.	.	.	.	.
=12	=12	=12	=12	=12	=12	=12	=12	=12	=12	=12	=12	=12	=12	=12
4A\	4	.	8f#/	.	8dd\]	.	2.ryy	2.ryy	2.ryy	.	.	.	2.ryy	2.ryy
.	.	.	4e/	.	4cc#X\	.	.	.	.	.	.	.	.	.
4AA/	.	.	.	.	.	.	.	.	.	.	.	.	.	.
.	.	.	4g/	.	4ee\	.	.	.	.	.	.	.	.	.
4A\	.	.	.	.	.	.	.	.	.	.	.	.	.	.
.	.	.	8e/	.	8g/	.	.	.	.	.	.	.	.	.
=13	=13	=13	=13	=13	=13	=13	=13	=13	=13	=13	=13	=13	=13	=13
!	!	!	!LO:TX:a:t=P:problem:mixed beam	!	!LO:TX:a:t=P:problem:mixed beam	!	!	!	!	!	!	!	!	!
!	!	!	!	!	!	!	!	!	!	!LO:N:vis=00	!	!	!	!
4D\	.	.	8d/L|	.	8f#/L	.	2.ryy	2.ryy	2.ryy	0.r	.	.	2.ryy	2.ryy
.	.	.	(>8ff#\	.	(>8ddd\	.	.	.	.	.	.	.	.	.
4r	.	.	8ee\	.	8ccc#X\	.	.	.	.	.	.	.	.	.
.	.	.	8ff#\	.	8ddd\	.	.	.	.	.	.	.	.	.
4r	.	.	8gg\)	.	8bb\	.	.	.	.	.	.	.	.	.
.	.	.	8ff#\J	.	8aa\J)	.	.	.	.	.	.	.	.	.
!	!	!	!LO:LB:g=original	!	!	!	!	!	!	!	!	!	!	!
=14	=14	=14	=14	=14	=14	=14	=14	=14	=14	=14	=14	=14	=14	=14
*	*	*	*	*below	*	*	*	*	*	*	*	*	*	*
!	!	!	!	!LO:DY:t=po	!	!	!	!	!	!	!	!	!	!
4D\	.	.	8r	p	8r	.	2.ryy	2.ryy	2.ryy	.	.	.	2.ryy	2.ryy
.	.	.	8f#/L	.	8dd\L|	.	.	.	.	.	.	.	.	.
4r	.	.	(8e/	.	(8cc#X\	.	.	.	.	.	.	.	.	.
.	.	.	8f#/	.	8dd\	.	.	.	.	.	.	.	.	.
4r	.	.	8g/)	.	8b\	.	.	.	.	.	.	.	.	.
.	.	.	8f#/J	.	8a\J)	.	.	.	.	.	.	.	.	.
=15	=15	=15	=15	=15	=15	=15	=15	=15	=15	=15	=15	=15	=15	=15
!LO:TX:a:t=P:problem:mixed beam	!	!	!	!	!	!	!	!	!	!	!	!	!	!
8G\L	.	.	16r	.	16r	.	2.ryy	2.ryy	2.ryy	.	.	.	2.ryy	2.ryy
.	.	.	(16b\LL	.	16b\LL	.	.	.	.	.	.	.	.	.
8G\	.	.	16bb\	.	16bb\	.	.	.	.	.	.	.	.	.
.	.	.	16gg\JJ)	.	16gg\JJ	.	.	.	.	.	.	.	.	.
*	*	*	*Xtuplet	*	*Xtuplet	*	*	*	*	*	*	*	*	*
!	!	!	!LO:TUP:a:problem:klamra łukowa	!	!	!	!	!	!	!	!	!	!	!
8A\	6 4	.	24ff#\LL	.	24ff#\LL	.	.	.	.	.	.	.	.	.
.	.	.	24ee\	.	24ee\	.	.	.	.	.	.	.	.	.
.	.	.	24dd\JJ	.	24dd\JJ	.	.	.	.	.	.	.	.	.
!	!	!	!LO:TUP:a:problem:klamra łukowa	!	!	!	!	!	!	!	!	!	!	!
8A\	.	.	24cc#X\LL	.	24cc#X\LL	.	.	.	.	.	.	.	.	.
.	.	.	24b\	.	24b\	.	.	.	.	.	.	.	.	.
.	.	.	24a\JJ	.	24a\JJ	.	.	.	.	.	.	.	.	.
.	.	.	8qqdd/	.	8qdd/	.	.	.	.	.	.	.	.	.
8AA/	x #	.	4ee\	.	4eeT\	.	.	.	.	.	.	.	.	.
8AA/J	.	.	.	.	.	.	.	.	.	.	.	.	.	.
=16	=16	=16	=16	=16	=16	=16	=16	=16	=16	=16	=16	=16	=16	=16
8.D\L	.	.	4dd\	.	4dd\	.	2.ryy	2.ryy	2.ryy	.	.	.	2.ryy	2.ryy
16d\K	.	.	.	.	.	.	.	.	.	.	.	.	.	.
8.A\	.	.	4d/	.	4d/	.	.	.	.	.	.	.	.	.
16F#\Jk	.	.	.	.	.	.	.	.	.	.	.	.	.	.
4D\	.	.	4r	.	4r	.	.	.	.	.	.	.	.	.
=17	=17	=17	=17	=17	=17	=17	=17	=17	=17	=17	=17	=17	=17	=17
*	*	*	*	*	*	*below	*	*	*	*	*	*	*	*
!	!	!	!	!LO:DY:t=po	!	!LO:DY:t=po	!	!	!	!LO:N:vis=00	!	!	!	!
8r	.	.	8r	p	2.dd\	p	2.ryy	2.ryy	2.ryy	0.r	.	.	2.ryy	2.ryy
8D\L	.	.	8f#/L	.	.	.	.	.	.	.	.	.	.	.
8D\	.	.	(8f#/	.	.	.	.	.	.	.	.	.	.	.
8D\J	.	.	8f#/	.	.	.	.	.	.	.	.	.	.	.
8D\L	.	.	8f#/	.	.	.	.	.	.	.	.	.	.	.
8D\J	.	.	8f#/J)	.	.	.	.	.	.	.	.	.	.	.
=18	=18	=18	=18	=18	=18	=18	=18	=18	=18	=18	=18	=18	=18	=18
8r	.	.	8r	.	2bb-X\	.	2.ryy	2.ryy	2.ryy	.	.	.	2.ryy	2.ryy
8D\L	-6_ 4_	.	(8g/L	.	.	.	.	.	.	.	.	.	.	.
8D\	.	.	8g/	.	.	.	.	.	.	.	.	.	.	.
8D\	.	.	8g/	.	.	.	.	.	.	.	.	.	.	.
8D\	.	.	8g/)	.	4cc#X\	.	.	.	.	.	.	.	.	.
8D\J	-6 4	.	8g/J	.	.	.	.	.	.	.	.	.	.	.
!	!	!	!	!	!LO:LB:g=original	!	!	!	!	!	!	!	!	!
=19	=19	=19	=19	=19	=19	=19	=19	=19	=19	=19	=19	=19	=19	=19
4D\	8 3	.	8f#/	.	8dd\	.	2.ryy	2.ryy	2.ryy	.	.	.	2.ryy	2.ryy
.	.	.	4d/	.	4f#/	.	.	.	.	.	.	.	.	.
4D\	.	.	.	.	.	.	.	.	.	.	.	.	.	.
.	.	.	(8e/L	.	(8g/L	.	.	.	.	.	.	.	.	.
4D\	.	.	8f#/	.	8a/	.	.	.	.	.	.	.	.	.
.	.	.	8g/J)	.	8b-X/J)	.	.	.	.	.	.	.	.	.
!LO:LB:g=original	!	!	!	!	!	!	!	!	!	!	!	!	!	!
=20	=20	=20	=20	=20	=20	=20	=20	=20	=20	=20	=20	=20	=20	=20
4C#X/	-7	.	4g/	.	4bt/	.	2.ryy	2.ryy	2.ryy	.	.	.	2.ryy	2.ryy
4D/	#	.	4f#/	.	4a/	.	.	.	.	.	.	.	.	.
4DD/	.	.	4r	.	4r	.	.	.	.	.	.	.	.	.
!	!	!	!LO:LB:g=original	!	!	!	!	!	!	!	!	!	!	!
=21	=21	=21	=21	=21	=21	=21	=21	=21	=21	=21	=21	=21	=21	=21
!	!	!	!	!	!	!	!	!	!	!LO:N:vis=00	!	!	!	!
8r	.	.	8r	.	4dd\	pp	2.ryy	2.ryy	2.ryy	0.r	.	.	2.ryy	2.ryy
8D\L	.	.	8f#/L	.	.	.	.	.	.	.	.	.	.	.
8D\	.	.	8f#/	.	16dd\LL|	.	.	.	.	.	.	.	.	.
.	.	.	.	.	(16dd\	.	.	.	.	.	.	.	.	.
8D\	.	.	8f#/	.	16cc#X\)	.	.	.	.	.	.	.	.	.
.	.	.	.	.	16dd\JJ	.	.	.	.	.	.	.	.	.
8D\	.	.	8f#/	.	(16cc#\LL	.	.	.	.	.	.	.	.	.
.	.	.	.	.	16dd\)	.	.	.	.	.	.	.	.	.
8D\J	.	.	8f#/J	.	(16cc#\	.	.	.	.	.	.	.	.	.
.	.	.	.	.	16dd\JJ)	.	.	.	.	.	.	.	.	.
=22	=22	=22	=22	=22	=22	=22	=22	=22	=22	=22	=22	=22	=22	=22
8r	.	.	8r	.	2bb-X\	.	2.ryy	2.ryy	2.ryy	.	.	.	2.ryy	2.ryy
8D\L	-6 4	.	8g/L	.	.	.	.	.	.	.	.	.	.	.
8D\	.	.	8g/	.	.	.	.	.	.	.	.	.	.	.
8D\	.	.	8g/	.	.	.	.	.	.	.	.	.	.	.
8D\	-7	.	8g/	.	4cc#X\	.	.	.	.	.	.	.	.	.
8D\J	6 4	.	8g/J	.	.	.	.	.	.	.	.	.	.	.
=23	=23	=23	=23	=23	=23	=23	=23	=23	=23	=23	=23	=23	=23	=23
!	!	!	!	!	!LO:TX:a:t=P:problem:mixed beam	!	!	!	!	!	!	!	!	!
4D\	.	.	8f#/L	.	8dd\L	.	2.ryy	2.ryy	2.ryy	.	.	.	2.ryy	2.ryy
.	.	.	8d/J	.	8f#/J	.	.	.	.	.	.	.	.	.
4r	.	.	(16d/LL	.	(16f#/LL	.	.	.	.	.	.	.	.	.
.	.	.	16e/)	.	16g/)	.	.	.	.	.	.	.	.	.
.	.	.	(16e/	.	(16g/	.	.	.	.	.	.	.	.	.
.	.	.	16f#/JJ)	.	16a/JJ)	.	.	.	.	.	.	.	.	.
4D\	.	.	(16f#/LL	.	(16a/LL	.	.	.	.	.	.	.	.	.
.	.	.	16g/)	.	16b-X/)	.	.	.	.	.	.	.	.	.
.	.	.	(16g/	.	(16b-/	.	.	.	.	.	.	.	.	.
.	.	.	16a/JJ)	.	16cc/JJ)	.	.	.	.	.	.	.	.	.
=24	=24	=24	=24	=24	=24	=24	=24	=24	=24	=24	=24	=24	=24	=24
.	.	.	8qqa/	.	8qqcc/	.	.	.	.	.	.	.	.	.
4C#X\	-7	.	4g/	.	4b-XT/	.	2.ryy	2.ryy	2.ryy	.	.	.	2.ryy	2.ryy
4D\	.	.	4f#/	.	4a/	.	.	.	.	.	.	.	.	.
4DD/	.	.	4r	.	4r	.	.	.	.	.	.	.	.	.
=25	=25	=25	=25	=25	=25	=25	=25	=25	=25	=25	=25	=25	=25	=25
*	*	*	*tuplet	*	*	*	*	*	*	*	*	*	*	*
!	!	!	!LO:TUP:a:problem:klamra łukowa, kropka zamiast numeru	!	!	!	!	!	!	!	!	!	!	!
!	!	!	!LO:TX:a:t=P:problem:mixed beam	!	!LO:TX:a:t=P:problem:mixed beam	!LO:DY:rj:t=for	!	!	!	!LO:N:vis=00	!	!	!	!
4GG/	n	.	12g/L	f	12g/L	f	2.ryy	2.ryy	2.ryy	0.r	.	.	2.ryy	2.ryy
.	.	.	12gg\	.	12bbn\	.	.	.	.	.	.	.	.	.
.	.	.	12gg\J	.	12bb\J	.	.	.	.	.	.	.	.	.
!	!	!	!LO:TUP:a:problem:klamra łukowa, kropka zamiast numeru	!	!	!	!	!	!	!	!	!	!	!
4G\	.	.	12gg\L	.	12bb\L	.	.	.	.	.	.	.	.	.
.	.	.	12dd\	.	12gg\	.	.	.	.	.	.	.	.	.
.	.	.	12b\J	.	12dd\J	.	.	.	.	.	.	.	.	.
.	.	.	8qqb/	.	8qqdd/	.	.	.	.	.	.	.	.	.
4G\	6 4	.	4cc\	.	4ee\	.	.	.	.	.	.	.	.	.
=26	=26	=26	=26	=26	=26	=26	=26	=26	=26	=26	=26	=26	=26	=26
!	!	!	!LO:TUP:a:problem:klamra łukowa, kropka zamiast numeru	!	!	!	!	!	!	!	!	!	!	!
4G\	5	.	12b\L	.	12dd\L	.	2.ryy	2.ryy	2.ryy	.	.	.	2.ryy	2.ryy
.	.	.	12gg\	.	12bb\	.	.	.	.	.	.	.	.	.
.	.	.	12gg\J	.	12bb\J	.	.	.	.	.	.	.	.	.
!	!	!	!	!	!LO:LB:g=original	!	!	!	!	!	!	!	!	!
!	!	!	!LO:TUP:a:problem:klamra łukowa, kropka zamiast numeru	!	!	!	!	!	!	!	!	!	!	!
4G\	.	.	12gg\L	.	12bb\L	.	.	.	.	.	.	.	.	.
.	.	.	12dd\	.	12gg\	.	.	.	.	.	.	.	.	.
.	.	.	12b\J	.	12dd\J	.	.	.	.	.	.	.	.	.
.	.	.	8qqb/	.	8qqdd/	.	.	.	.	.	.	.	.	.
4F#\	6 5	.	4a\	.	4cc\	.	.	.	.	.	.	.	.	.
=27	=27	=27	=27	=27	=27	=27	=27	=27	=27	=27	=27	=27	=27	=27
!	!	!	!	!	!LO:TUP:b:problem:klamra łukowa	!	!	!	!	!	!	!	!	!
4G\	.	.	4g/	.	12b/L	.	2.ryy	2.ryy	2.ryy	.	.	.	2.ryy	2.ryy
.	.	.	.	.	12a/	.	.	.	.	.	.	.	.	.
.	.	.	.	.	12g/J	.	.	.	.	.	.	.	.	.
.	.	.	.	.	8qqg/	.	.	.	.	.	.	.	.	.
4d\	4	.	4g/	.	2aT/	.	.	.	.	.	.	.	.	.
4D/	3	.	4f#t/	.	.	.	.	.	.	.	.	.	.	.
!	!	!	!LO:LB:g=original	!	!	!	!	!	!	!	!	!	!	!
=28	=28	=28	=28	=28	=28	=28	=28	=28	=28	=28	=28	=28	=28	=28
*	*	*below	*Xtuplet	*	*	*	*	*	*	*	*	*	*	*
!	!	!	!LO:TX:a:t=P:problem:mixed beam	!LO:DY:t=po	!LO:TX:a:t=P:problem:mixed beam	!LO:DY:t=po	!	!	!	!	!	!	!	!
4G\	.	p	12g/L	p	12g/L	p	2.ryy	2.ryy	2.ryy	.	.	.	2.ryy	2.ryy
.	.	.	12gg\	.	12bb\	.	.	.	.	.	.	.	.	.
.	.	.	12gg\J	.	12bb\J	.	.	.	.	.	.	.	.	.
4G\	.	.	12gg\L	.	12bb\L	.	.	.	.	.	.	.	.	.
.	.	.	12dd\	.	12gg\	.	.	.	.	.	.	.	.	.
.	.	.	12b\J	.	12dd\J	.	.	.	.	.	.	.	.	.
.	.	.	8qqb/	.	8qqdd/	.	.	.	.	.	.	.	.	.
4G\	6 4	.	4cc\	.	4ee\	.	.	.	.	.	.	.	.	.
=29	=29	=29	=29	=29	=29	=29	=29	=29	=29	=29	=29	=29	=29	=29
!	!	!	!	!	!	!	!	!	!	!LO:N:vis=0	!	!	!	!
4G\	5 3	.	12b\L	.	12dd\L	.	2.ryy	2.ryy	2.ryy	1.r	.	.	2.ryy	2.ryy
.	.	.	12gg\	.	12bb\	.	.	.	.	.	.	.	.	.
.	.	.	12gg\J	.	12bb\J	.	.	.	.	.	.	.	.	.
4G\	.	.	12gg\L	.	12bb\L	.	.	.	.	.	.	.	.	.
.	.	.	12dd\	.	12gg\	.	.	.	.	.	.	.	.	.
.	.	.	12b\J	.	12dd\J	.	.	.	.	.	.	.	.	.
.	.	.	8qqb/	.	8qqdd/	.	.	.	.	.	.	.	.	.
4F#\	5	.	4a/	.	4cc\	.	.	.	.	.	.	.	.	.
=30	=30	=30	=30	=30	=30	=30	=30	=30	=30	=30	=30	=30	=30	=30
!	!	!	!	!LO:DY:rj	!LO:TUP:b:problem:klamra łukowa	!	!	!	!	!	!	!	!	!
4G\	.	.	4g/	f	12b/L	.	2.ryy	2.ryy	2.ryy	.	.	.	2.ryy	2.ryy
.	.	.	.	.	12a/	.	.	.	.	.	.	.	.	.
.	.	.	.	.	12g/J	.	.	.	.	.	.	.	.	.
4d\	.	.	4g/	.	4d/	.	.	.	.	.	.	.	.	.
.	4	.	.	.	8qqg/	f	.	.	.	.	.	.	.	.
4D/	3	.	4f#X/	.	4aT/	.	.	.	.	.	.	.	.	.
=31	=31	=31	=31	=31	=31	=31	=31	=31	=31	=31	=31	=31	=31	=31
4G\	.	.	4g/	.	4g/	.	2.ryy	2.ryy	2.ryy	2.r	.	.	2.ryy	2.ryy
4GG;/	.	.	4G/	.	4G/	.	.	.	.	.	.	.	.	.
4r	.	.	4r	.	4r	.	.	.	.	.	.	.	.	.
!LO:LB:g=original	!	!	!	!	!	!	!	!	!	!	!	!	!	!
=32	=32	=32	=32	=32	=32	=32	=32	=32	=32	=32	=32	=32	=32	=32
*	*	*	*	*	*	*	*	*	*	*2\right	*	*	*	*
!	!	!	!	!LO:DY:t=po	!	!LO:DY:t=pio	!	!	!	!LO:TX:b:t=P:problem:"Be" przed kluczem	!	!	!	!
8r	.	p	8r	p	2.gg\	p	2.ryy	2.ryy	2.ryy	2.gg\	Be-	.	2.ryy	2.ryy
8G\L	.	.	8b\L|	.	.	.	.	.	.	.	.	.	.	.
(8B\	.	.	(8dd\	.	.	.	.	.	.	.	.	.	.	.
8G\)	.	.	8b\)	.	.	.	.	.	.	.	.	.	.	.
(8B\	.	.	(8dd\	.	.	.	.	.	.	.	.	.	.	.
8G\J)	.	.	8b\J)	.	.	.	.	.	.	.	.	.	.	.
=33	=33	=33	=33	=33	=33	=33	=33	=33	=33	=33	=33	=33	=33	=33
.	.	.	.	.	8qqdd/	.	.	.	.	8qqdd/	.	.	.	.
8r	.	.	8r	.	2.cc\	.	2.ryy	2.ryy	2.ryy	2.cc\	-ne-	.	2.ryy	2.ryy
8F#\L	6 5	.	8a/L|	.	.	.	.	.	.	.	.	.	.	.
8D\	.	.	(8f#/	.	.	.	.	.	.	.	.	.	.	.
(8F#\	.	.	8a/)	.	.	.	.	.	.	.	.	.	.	.
8D\	.	.	(8f#/	.	.	.	.	.	.	.	.	.	.	.
8F#\J)	.	.	8a/J)	.	.	.	.	.	.	.	.	.	.	.
=34	=34	=34	=34	=34	=34	=34	=34	=34	=34	=34	=34	=34	=34	=34
4G\	.	.	8g/	.	8b\	.	2.ryy	2.ryy	2.ryy	8b\L	-dic-	.	2.ryy	2.ryy
.	.	.	4a/	.	4cc\	.	.	.	.	8cc\J	.	.	.	.
4G\	.	.	.	.	.	.	.	.	.	8cc\L	-tus	.	.	.
.	.	.	4b/	.	4dd\	.	.	.	.	8dd\J	.	.	.	.
4C/	.	.	.	.	.	.	.	.	.	8dd\L	qui	.	.	.
.	.	.	8g/	.	8ee\	.	.	.	.	8ee\J	.	.	.	.
=35	=35	=35	=35	=35	=35	=35	=35	=35	=35	=35	=35	=35	=35	=35
.	.	.	.	.	8qqg/	.	.	.	.	8qqg/	.	.	.	.
4D\	7	.	4c/	.	4f#t/	.	2.ryy	2.ryy	2.ryy	4f#/	ve-	.	2.ryy	2.ryy
!LO:TX:a:t=P:problem:mixed beam	!	!	!	!	!	!	!	!	!	!	!	!	!	!
8.GG/L	3	.	4B/	.	4g/	.	.	.	.	4g/	-nit	.	.	.
16G\Jk	.	.	.	.	.	.	.	.	.	.	.	.	.	.
8.D/L	.	.	4r	.	4r	.	.	.	.	4r	.	.	.	.
16C/Jk	.	.	.	.	.	.	.	.	.	.	.	.	.	.
!	!	!	!LO:LB:g=original	!	!LO:LB:g=original	!	!	!	!	!	!	!	!	!
=36	=36	=36	=36	=36	=36	=36	=36	=36	=36	=36	=36	=36	=36	=36
!LO:TX:a:t=P:problem:mixed beam	!	!	!	!	!	!	!	!	!	!	!	!	!	!
8GG/L	.	.	8r	.	2.gg\	.	2.ryy	2.ryy	2.ryy	2.gg\	qui	.	2.ryy	2.ryy
8G\	.	.	8b\L|	.	.	.	.	.	.	.	.	.	.	.
8B\	.	.	(8dd\	.	.	.	.	.	.	.	.	.	.	.
8G\	.	.	8b\)	.	.	.	.	.	.	.	.	.	.	.
8B\	.	.	(8dd\	.	.	.	.	.	.	.	.	.	.	.
8G\J	.	.	8b\J)	.	.	.	.	.	.	.	.	.	.	.
=37	=37	=37	=37	=37	=37	=37	=37	=37	=37	=37	=37	=37	=37	=37
.	.	.	.	.	8qqdd/	.	.	.	.	8qqdd/	.	.	.	.
8r	.	.	8r	.	2.cc\	.	2.ryy	2.ryy	2.ryy	2.cc\	ve-	.	2.ryy	2.ryy
8F#\L	5	.	8a/L|	.	.	.	.	.	.	.	.	.	.	.
8D\	.	.	(8f#/	.	.	.	.	.	.	.	.	.	.	.
8F#\	.	.	8a/)	.	.	.	.	.	.	.	.	.	.	.
8D\	.	.	(8f#/	.	.	.	.	.	.	.	.	.	.	.
8F#\J	X	.	8a/J)	.	.	.	.	.	.	.	.	.	.	.
=38	=38	=38	=38	=38	=38	=38	=38	=38	=38	=38	=38	=38	=38	=38
!	!	!	!LO:TX:a:t=P:problem:mixed beam	!	!	!	!	!	!	!	!	!	!	!
4G\	.	.	8g/L	.	8b\L	.	2.ryy	2.ryy	2.ryy	8b\	-nit	.	2.ryy	2.ryy
!	!	!	!	!	!	!	!	!	!	!LO:TX:b:t=P:problem:nieczytelny tekst w środku taktu	!	!	!	!
.	.	.	8gg\J	.	8bb\J	.	.	.	.	8dd\	(in)	.	.	.
4r	.	.	(16gg'\LL	.	(16bb'\LL	.	.	.	.	16gg\LL	(no)	.	.	.
.	.	.	16ff#'\	.	16aa'\	.	.	.	.	16ff#\	.	.	.	.
.	.	.	16ee'\	.	16gg'\	.	.	.	.	16ee\	.	.	.	.
.	.	.	16dd'\JJ	.	16ff#'\JJ	.	.	.	.	16dd\JJ	.	.	.	.
!	!	!	!	!	!	!	!	!	!	!LO:LB:g=original	!	!	!	!
4GG/	.	.	16cc'\LL	.	16ee'\LL	.	.	.	.	16cc\LL	.	.	.	.
.	.	.	16b'\	.	16dd'\	.	.	.	.	16b\JJ	.	.	.	.
.	.	.	16a'\	.	16cc'\	.	.	.	.	16gg\	mi-	.	.	.
.	.	.	16g'\JJ)	.	16b'\JJ)	.	.	.	.	16b\	-ne	.	.	.
=39	=39	=39	=39	=39	=39	=39	=39	=39	=39	=39	=39	=39	=39	=39
4D\	6 4	.	4gT/	.	4bt\	.	2.ryy	2.ryy	2.ryy	8.b\	Do-	.	2.ryy	2.ryy
.	.	.	.	.	.	.	.	.	.	16a\	-mi-	.	.	.
!LO:TX:a:t=P:problem:mixed beam	!	!	!	!	!	!	!	!	!	!	!	!	!	!
8.DD/L	5 3	.	4f#/	.	4a\	.	.	.	.	4a\	-ni	.	.	.
16d\K	.	.	.	.	.	.	.	.	.	.	.	.	.	.
8.A\	.	.	4r	.	4r	.	.	.	.	4r	.	.	.	.
16F#\Jk	.	.	.	.	.	.	.	.	.	.	.	.	.	.
=40	=40	=40	=40	=40	=40	=40	=40	=40	=40	=40	=40	=40	=40	=40
8D\L	.	.	8r	.	8r	.	2.ryy	2.ryy	2.ryy	2a\	be-	.	2.ryy	2.ryy
8D\	.	.	(8a/L	.	8ff#\L	.	.	.	.	.	.	.	.	.
8D\	.	.	8a/	.	8ff#\	.	.	.	.	.	.	.	.	.
8D\	.	.	8a/	.	8ff#\	.	.	.	.	.	.	.	.	.
8D\	.	.	8a/	.	8ff#\	.	.	.	.	4ff#\	-ne-	.	.	.
8D\J	.	.	8a/J)	.	8ff#\J	.	.	.	.	.	.	.	.	.
!LO:LB:g=original	!	!	!	!	!	!	!	!	!	!	!	!	!	!
=41	=41	=41	=41	=41	=41	=41	=41	=41	=41	=41	=41	=41	=41	=41
8G\L	9 7	.	(8a/L	.	8ff#\L	.	2.ryy	2.ryy	2.ryy	4ff#\	-dic-	.	2.ryy	2.ryy
8G\	.	.	8a/	.	8ff#\	.	.	.	.	.	.	.	.	.
8G\	8 6	.	8g/	.	8ee\	.	.	.	.	4ee\	-tus	.	.	.
8G\	.	.	8g/	.	8ee\	.	.	.	.	.	.	.	.	.
8G#X\	7 5	.	8f#/	.	8dd\	.	.	.	.	4dd\	qui	.	.	.
8G#\J	.	.	8f#/J)	.	8dd\J	.	.	.	.	.	.	.	.	.
=42	=42	=42	=42	=42	=42	=42	=42	=42	=42	=42	=42	=42	=42	=42
*	*	*	*	*	*	*	*	*	*	*Xtuplet	*	*	*	*
!	!	!	!	!	!LO:TX:a:t=P:problem:tryl bez tr	!	!	!	!	!	!	!	!	!
8AA/L	#	.	(8e/L	.	8cc#Xtt\L	.	2.ryy	2.ryy	2.ryy	24cc#X\LL	ve-	.	2.ryy	2.ryy
.	.	.	.	.	.	.	.	.	.	24ee\	.	.	.	.
.	.	.	.	.	.	.	.	.	.	24dd\JJ	.	.	.	.
8AA/	.	.	8e/	.	8cc#ttt\	.	.	.	.	8cc#\L	.	.	.	.
8AA/	.	.	8e/	.	8cc#ttt\	.	.	.	.	8b\	.	.	.	.
8AA/	.	.	8e/	.	8cc#ttt\	.	.	.	.	8a\J	.	.	.	.
.	.	.	.	.	.	.	.	.	.	8qqa/	.	.	.	.
8AA/	.	.	8e/	.	8cc#ttt\	.	.	.	.	4g\	.	.	.	.
8AA/J	.	.	8e/J)	.	8cc#ttt\J	.	.	.	.	.	.	.	.	.
!	!	!	!LO:LB:g=original	!	!	!	!	!	!	!	!	!	!	!
=43	=43	=43	=43	=43	=43	=43	=43	=43	=43	=43	=43	=43	=43	=43
!	!	!	!	!	!LO:TX:a:t=P:problem:tryl bez tr	!	!	!	!	!	!	!	!	!
8AA/L	6 4	.	(8f#/L	.	8ddTT\L	.	2.ryy	2.ryy	2.ryy	8.f#/L	.	.	2.ryy	2.ryy
8AA/	.	.	8f#/	.	8ddTTT\	.	.	.	.	.	.	.	.	.
.	.	.	.	.	.	.	.	.	.	16g/Jk	.	.	.	.
8AA/	.	.	8f#/	.	8ddTTT\	.	.	.	.	4a\	-nit	.	.	.
8AA/	.	.	8f#/	.	8ddTTT\	.	.	.	.	.	.	.	.	.
8AA/	.	.	8f#/	.	8ddTTT\	.	.	.	.	8r	.	.	.	.
8AA/J	.	.	8f#/J)	.	8ddTTT\J	.	.	.	.	8dd\	in	.	.	.
!	!	!	!	!	!LO:LB:g=original	!	!	!	!	!	!	!	!	!
=44	=44	=44	=44	=44	=44	=44	=44	=44	=44	=44	=44	=44	=44	=44
!	!	!	!	!	!LO:TX:a:t=P:problem:tryl bez tr	!	!	!	!	!	!	!	!	!
8AA/L	.	.	(8g/L	.	8cc#Xtt\L	.	2.ryy	2.ryy	2.ryy	12cc#X\L	no-	.	2.ryy	2.ryy
.	.	.	.	.	.	.	.	.	.	12ee\	.	.	.	.
8AA/	.	.	8g/	.	8cc#ttt\	.	.	.	.	.	.	.	.	.
.	.	.	.	.	.	.	.	.	.	12dd\J	.	.	.	.
8AA/	.	.	8g/	.	8cc#ttt\	.	.	.	.	12cc#\L	.	.	.	.
.	.	.	.	.	.	.	.	.	.	12b\	.	.	.	.
8AA/	.	.	8g/	.	8cc#ttt\	.	.	.	.	.	.	.	.	.
.	.	.	.	.	.	.	.	.	.	12a\J	.	.	.	.
!	!	!	!	!	!	!	!	!	!	!LO:LB:g=original	!	!	!	!
.	.	.	.	.	.	.	.	.	.	16qqa/	.	.	.	.
8AA/	.	.	8g/	.	8cc#ttt\	.	.	.	.	8.g\	-mi-	.	.	.
8AA/J	.	.	8g/J)	.	8cc#ttt\J	.	.	.	.	.	.	.	.	.
.	.	.	.	.	.	.	.	.	.	16g\	-ne	.	.	.
=45	=45	=45	=45	=45	=45	=45	=45	=45	=45	=45	=45	=45	=45	=45
!	!	!	!	!	!LO:TX:a:t=P:problem:mixed beam	!	!	!	!	!	!	!	!	!
4D\	.	.	8f#/L	.	8cc\L	.	2.ryy	2.ryy	2.ryy	8f#/	in	.	2.ryy	2.ryy
.	.	.	(8d/	.	(8f#/	.	.	.	.	8f#/	no-	.	.	.
4r	.	.	8e/	.	8g/	.	.	.	.	8g\L	-mi-	.	.	.
.	.	.	8f#/	.	8a/	.	.	.	.	8a\J	.	.	.	.
4r	.	.	8g/)	.	8b/	.	.	.	.	8b\L|	-ne	.	.	.
.	.	.	8e/J	.	8cc#X/J)	.	.	.	.	8cc#X\J|	.	.	.	.
=46	=46	=46	=46	=46	=46	=46	=46	=46	=46	=46	=46	=46	=46	=46
8r	.	.	8f#/L|	.	[2.dd\	.	2.ryy	2.ryy	2.ryy	2.dd\	Do-	.	2.ryy	2.ryy
8D\L	.	.	(8f#/	.	.	.	.	.	.	.	.	.	.	.
8E\	7	.	8g/	.	.	.	.	.	.	.	.	.	.	.
8F#\	.	.	8a/	.	.	.	.	.	.	.	.	.	.	.
8G\	6	.	8b/	.	.	.	.	.	.	.	.	.	.	.
.	5	.	.	.	.	.	.	.	.	.	.	.	.	.
8G#X\J	6 5	.	8g/J)	.	.	.	.	.	.	.	.	.	.	.
=47	=47	=47	=47	=47	=47	=47	=47	=47	=47	=47	=47	=47	=47	=47
4A\	4	.	8d/	.	8dd\]	.	2.ryy	2.ryy	2.ryy	8dd\	.	.	2.ryy	2.ryy
.	.	.	4e/	.	4cc#X\	.	.	.	.	4cc#X\	.	.	.	.
4AA/	#	.	.	.	.	.	.	.	.	.	.	.	.	.
.	.	.	4cc#X\	.	4ee\	.	.	.	.	4ee\	.	.	.	.
4A\	.	.	.	.	.	.	.	.	.	.	.	.	.	.
.	.	.	8ee\	.	8gg\	.	.	.	.	8gg\	.	.	.	.
=48	=48	=48	=48	=48	=48	=48	=48	=48	=48	=48	=48	=48	=48	=48
.	.	.	8qqee/	.	8qqgg/	.	.	.	.	.	.	.	.	.
4D\	.	.	4ddT\	.	4ff#t\	.	2.ryy	2.ryy	2.ryy	8.ff#\	.	.	2.ryy	2.ryy
.	.	.	.	.	.	.	.	.	.	16ee\	-mi-	.	.	.
4A\	#	.	4cc#X\	.	4ee\	.	.	.	.	4ee\	-ni	.	.	.
4AA/	.	.	4r	.	4r	.	.	.	.	4r	.	.	.	.
=49	=49	=49	=49	=49	=49	=49	=49	=49	=49	=49	=49	=49	=49	=49
4D\	.	.	8r	f	8r	.	2.ryy	2.ryy	2.ryy	2.r	.	.	2.ryy	2.ryy
.	.	.	(8ff#\L	.	8ddd\L|	f	.	.	.	.	.	.	.	.
!	!	!	!	!	!LO:TX:a:t=P:problem:# above	!	!	!	!	!	!	!	!	!
4r	.	.	8ee\	.	8ccc#X\	.	.	.	.	.	.	.	.	.
.	.	.	8ff#\	.	(8ddd\	.	.	.	.	.	.	.	.	.
4r	.	.	8gg\	.	8bb\	.	.	.	.	.	.	.	.	.
.	.	.	8ff#\J)	.	8aa\J)	.	.	.	.	.	.	.	.	.
=50	=50	=50	=50	=50	=50	=50	=50	=50	=50	=50	=50	=50	=50	=50
!	!	!	!	!LO:DY:t=pio	!	!	!	!	!	!	!	!	!	!
4D\	.	.	8r	p	8r	.	2.ryy	2.ryy	2.ryy	8r	.	.	2.ryy	2.ryy
.	.	.	8f#/L	.	8dd\L|	.	.	.	.	8dd\	qui	.	.	.
4r	.	.	(8e/	.	(8cc#X\	.	.	.	.	8cc#X\L	ve-	.	.	.
.	.	.	8f#/	.	8dd\	.	.	.	.	8dd\J	.	.	.	.
4r	.	.	8g/	.	8b\)	.	.	.	.	8b\	-nit	.	.	.
.	.	.	8f#/J)	.	8a\J	.	.	.	.	8a\	in	.	.	.
!LO:LB:g=original	!	!	!LO:LB:g=original	!	!	!	!	!	!	!LO:PB:g=original	!	!	!	!
=51	=51	=51	=51	=51	=51	=51	=51	=51	=51	=51	=51	=51	=51	=51
!LO:TX:a:t=P:problem:mixed beam	!	!	!	!	!	!	!	!	!	!	!	!	!	!
8G\L	.	.	8d/L	.	(8.b/L	.	2.ryy	2.ryy	2.ryy	16b\LL	no-	.	2.ryy	2.ryy
.	.	.	.	.	.	.	.	.	.	16g\JJ	.	.	.	.
8G\	.	.	8d/	.	.	.	.	.	.	16f#/	-mi-	.	.	.
.	.	.	.	.	32a/LL	.	.	.	.	16e/	.	.	.	.
.	.	.	.	.	32g/JJJ)	.	.	.	.	.	.	.	.	.
8A\	6 4	.	8d/	.	(4f#/	.	.	.	.	4d/	-ne	.	.	.
8A\	.	.	8d/	.	.	.	.	.	.	.	.	.	.	.
8AA/	x #	.	8c#X/	.	4e/)	.	.	.	.	8.e/	Do-	.	.	.
8AA/J	.	.	8c#/J	.	.	.	.	.	.	.	.	.	.	.
.	.	.	.	.	.	.	.	.	.	16d/	-mi-	.	.	.
=52	=52	=52	=52	=52	=52	=52	=52	=52	=52	=52	=52	=52	=52	=52
!	!	!	!	!	!LO:TX:a:t=P:problem:mixed beam	!	!	!	!	!	!	!	!	!
4D\	.	.	8d/L|	.	8d/L	.	2.ryy	2.ryy	2.ryy	4d/	-ni	.	2.ryy	2.ryy
.	.	.	(>8ff#\	.	(>8ddd\|	.	.	.	.	.	.	.	.	.
4r	.	.	8ee\	.	8ccc#X\	.	.	.	.	4r	.	.	.	.
.	.	.	8ff#\	.	8ddd\J)	.	.	.	.	.	.	.	.	.
!	!	!	!	!	!LO:LB:g=original	!	!	!	!	!	!	!	!	!
4r	.	.	8gg\	.	8bb\L	.	.	.	.	4r	.	.	.	.
.	.	.	8ff#\J)	.	8aa\J	.	.	.	.	.	.	.	.	.
=53	=53	=53	=53	=53	=53	=53	=53	=53	=53	=53	=53	=53	=53	=53
4D\	.	.	8r	.	8r	.	2.ryy	2.ryy	2.ryy	8r	.	.	2.ryy	2.ryy
.	.	.	8f#/L|	.	8dd\L|	.	.	.	.	8dd\	qui	.	.	.
4r	.	.	(8e/	.	(8cc#X\	.	.	.	.	8cc#X\L	ve-	.	.	.
.	.	.	8f#/	.	8dd\	.	.	.	.	8dd\J	.	.	.	.
4GG/	.	.	8g/	.	8b\)	.	.	.	.	8b\	-nit	.	.	.
.	.	.	8f#/J)	.	8a\J	.	.	.	.	8a\	in	.	.	.
=54	=54	=54	=54	=54	=54	=54	=54	=54	=54	=54	=54	=54	=54	=54
!	!	!	!LO:TX:a:t=P:problem:mixed beam	!	!	!	!	!	!	!	!	!	!	!
4AA/	6 4	.	8d/L	.	16r	.	2.ryy	2.ryy	2.ryy	8b\	no-	.	2.ryy	2.ryy
.	.	.	.	.	16b\LL	.	.	.	.	.	.	.	.	.
.	.	.	8dd\	.	16bb\	.	.	.	.	16gg\	-mi-	.	.	.
.	.	.	.	.	16gg\JJ	.	.	.	.	16ee\	-ne	.	.	.
!LO:TX:a:t=P:problem:mixed beam	!	!	!	!	!LO:TUP:a:problem:klamra łukowa	!	!	!	!	!	!	!	!	!
8A\L	5 #	.	8dd\	.	24ff#\LL	.	.	.	.	4dd\	Do-	.	.	.
.	.	.	.	.	24ee\	.	.	.	.	.	.	.	.	.
.	.	.	.	.	24dd\JJ	.	.	.	.	.	.	.	.	.
!	!	!	!	!	!LO:TUP:a:problem:klamra łukowa	!	!	!	!	!	!	!	!	!
8AA/J	.	.	8dd\	.	24cc#X\LL	.	.	.	.	.	.	.	.	.
.	.	.	.	.	24b\	.	.	.	.	.	.	.	.	.
.	.	.	.	.	24a\JJ	.	.	.	.	.	.	.	.	.
.	.	.	.	.	8qqdd/	.	.	.	.	.	.	.	.	.
16A\LL	.	.	8cc#X\	.	4eeT\	.	.	.	.	8.ee\	.	.	.	.
16G\	.	.	.	.	.	.	.	.	.	.	.	.	.	.
16F#\	.	.	8cc#\J	.	.	.	.	.	.	.	.	.	.	.
16E\JJ	.	.	.	.	.	.	.	.	.	16dd\	-mi-	.	.	.
=55	=55	=55	=55	=55	=55	=55	=55	=55	=55	=55	=55	=55	=55	=55
.	.	.	.	.	8qqdd/	f	.	.	.	.	.	.	.	.
!	!	!	!	!LO:DY:t=for.	!	!	!	!	!	!	!	!	!	!
4D\	.	.	8dd\L|	f	2.ddd\	.	2.ryy	2.ryy	2.ryy	4dd\	-ni	.	2.ryy	2.ryy
.	.	.	8ff#\|	.	.	.	.	.	.	.	.	.	.	.
4r	.	.	(8aa\	.	.	.	.	.	.	4r	.	.	.	.
.	.	.	8ff#\)	.	.	.	.	.	.	.	.	.	.	.
4r	.	.	(8aa\	.	.	.	.	.	.	4r	.	.	.	.
.	.	.	8ff#\J)	.	.	.	.	.	.	.	.	.	.	.
!	!	!	!	!	!	!	!	!	!	!LO:LB:g=original	!	!	!	!
=56	=56	=56	=56	=56	=56	=56	=56	=56	=56	=56	=56	=56	=56	=56
!	!	!	!	!	!	!	!	!	!	!LO:N:vis=00	!	!	!	!
4GG/	.	p	8r	.	2.gg\	.	2.ryy	2.ryy	2.ryy	0.r	.	.	2.ryy	2.ryy
.	.	.	8ee\L|	.	.	.	.	.	.	.	.	.	.	.
4r	.	.	(8cc#X\	.	.	.	.	.	.	.	.	.	.	.
.	.	.	8ee\)	.	.	.	.	.	.	.	.	.	.	.
4r	.	.	(8cc#\	.	.	.	.	.	.	.	.	.	.	.
.	.	.	8ee\J)	.	.	.	.	.	.	.	.	.	.	.
=57	=57	=57	=57	=57	=57	=57	=57	=57	=57	=57	=57	=57	=57	=57
!LO:TX:a:t=P:problem:brak taktów 57-73	!	!	!	!	!	!	!	!	!	!	!	!	!	!
2.ryy	.	.	8dd\	.	8ff#\	.	2.ryy	2.ryy	2.ryy	.	.	.	2.ryy	2.ryy
.	.	.	4ee\	.	4gg\	.	.	.	.	.	.	.	.	.
.	.	.	4ff#\	.	4aa\	.	.	.	.	.	.	.	.	.
.	.	.	8dd\	.	8bb\	.	.	.	.	.	.	.	.	.
=58	=58	=58	=58	=58	=58	=58	=58	=58	=58	=58	=58	=58	=58	=58
.	.	.	.	.	8qqdd/	.	.	.	.	.	.	.	.	.
2.ryy	.	.	4g/	.	4cc#X\	.	2.ryy	2.ryy	2.ryy	.	.	.	2.ryy	2.ryy
.	.	.	4f#/	.	4dd\	.	.	.	.	.	.	.	.	.
.	.	.	4r	.	4r	.	.	.	.	.	.	.	.	.
!	!	!	!LO:LB:g=original	!	!	!	!	!	!	!	!	!	!	!
=59	=59	=59	=59	=59	=59	=59	=59	=59	=59	=59	=59	=59	=59	=59
!	!	!	!	!LO:DY:t=pio	!	!LO:DY:t=po	!	!	!	!	!	!	!	!
2.ryy	.	.	8r	p	2.dd\	p	2.ryy	2.ryy	2.ryy	.	.	.	2.ryy	2.ryy
.	.	.	8f#/L|	.	.	.	.	.	.	.	.	.	.	.
.	.	.	(8a/	.	.	.	.	.	.	.	.	.	.	.
.	.	.	8f#/)	.	.	.	.	.	.	.	.	.	.	.
.	.	.	(8a/	.	.	.	.	.	.	.	.	.	.	.
.	.	.	8f#/J)	.	.	.	.	.	.	.	.	.	.	.
=60	=60	=60	=60	=60	=60	=60	=60	=60	=60	=60	=60	=60	=60	=60
.	.	.	.	.	8qqa/	.	.	.	.	.	.	.	.	.
!	!	!	!	!	!	!	!	!	!	!LO:N:vis=00	!	!	!	!
2.ryy	.	.	8r	.	2.g/	.	2.ryy	2.ryy	2.ryy	0.r	.	.	2.ryy	2.ryy
.	.	.	8e/L|	.	.	.	.	.	.	.	.	.	.	.
.	.	.	(8c#X/	.	.	.	.	.	.	.	.	.	.	.
.	.	.	8e/)	.	.	.	.	.	.	.	.	.	.	.
.	.	.	(8c#/	.	.	.	.	.	.	.	.	.	.	.
.	.	.	8e/J)	.	.	.	.	.	.	.	.	.	.	.
=61	=61	=61	=61	=61	=61	=61	=61	=61	=61	=61	=61	=61	=61	=61
!	!	!	!LO:TX:a:t=P:problem:mixed beam	!	!LO:TX:a:t=P:problem:mixed beam	!	!	!	!	!	!	!	!	!
2.ryy	.	.	8d/L	.	8f#/L	.	2.ryy	2.ryy	2.ryy	.	.	.	2.ryy	2.ryy
.	.	.	8dd\J	.	8ff#\J	.	.	.	.	.	.	.	.	.
!	!	!	!	!	!LO:LB:g=original	!	!	!	!	!	!	!	!	!
.	.	.	(16dd'\LL	.	(16ff#'\LL	.	.	.	.	.	.	.	.	.
.	.	.	16cc#X'\	.	16ee'\	.	.	.	.	.	.	.	.	.
.	.	.	16b'\	.	16dd'\	.	.	.	.	.	.	.	.	.
.	.	.	16a'\JJ)	.	16cc'\JJ	.	.	.	.	.	.	.	.	.
.	.	.	(16g'/LL	.	16b'\LL	.	.	.	.	.	.	.	.	.
.	.	.	16f#'/	.	16a'\	.	.	.	.	.	.	.	.	.
.	.	.	16e'/	.	16g'\	.	.	.	.	.	.	.	.	.
.	.	.	16d'/JJ)	.	16f#'\JJ)	.	.	.	.	.	.	.	.	.
=62	=62	=62	=62	=62	=62	=62	=62	=62	=62	=62	=62	=62	=62	=62
.	.	.	8qqe/	.	8qqg/	.	.	.	.	.	.	.	.	.
2.ryy	.	.	4dT/	.	4f#/	.	2.ryy	2.ryy	2.ryy	.	.	.	2.ryy	2.ryy
.	.	.	4c#X/	.	4e/	.	.	.	.	.	.	.	.	.
.	.	.	4r	.	4r	.	.	.	.	.	.	.	.	.
=63	=63	=63	=63	=63	=63	=63	=63	=63	=63	=63	=63	=63	=63	=63
2.ryy	.	.	8r	f	8r	f	2.ryy	2.ryy	2.ryy	.	.	.	2.ryy	2.ryy
.	.	.	8f#/L|	.	8a\L|	.	.	.	.	.	.	.	.	.
.	.	.	(8a/	.	(8ccn\	.	.	.	.	.	.	.	.	.
.	.	.	8f#/)	.	8a\)	.	.	.	.	.	.	.	.	.
.	.	.	(8a/	.	(8cc\	.	.	.	.	.	.	.	.	.
.	.	.	8f#/J)	.	8a\J)	.	.	.	.	.	.	.	.	.
=64	=64	=64	=64	=64	=64	=64	=64	=64	=64	=64	=64	=64	=64	=64
!	!	!	!	!LO:DY:t=po	!	!	!	!	!	!LO:N:vis=00	!	!	!	!
2.ryy	.	.	8r	p	8r	.	2.ryy	2.ryy	2.ryy	0.r	.	.	2.ryy	2.ryy
.	.	.	8B/	.	8d/L	.	.	.	.	.	.	.	.	.
!	!	!	!	!	!	!LO:DY:t=po	!	!	!	!	!	!	!	!
.	.	.	(8d/L	.	(8b/	p	.	.	.	.	.	.	.	.
.	.	.	8cn/)	.	8a/	.	.	.	.	.	.	.	.	.
.	.	.	(8A/	.	8f#/	.	.	.	.	.	.	.	.	.
.	.	.	8B/J)	.	8g/J)	.	.	.	.	.	.	.	.	.
=65	=65	=65	=65	=65	=65	=65	=65	=65	=65	=65	=65	=65	=65	=65
!	!	!	!	!LO:DY:t=for.	!	!	!	!	!	!	!	!	!	!
2.ryy	.	.	8r	f	8r	f	2.ryy	2.ryy	2.ryy	.	.	.	2.ryy	2.ryy
.	.	.	8g#X/L	.	8b\L|	.	.	.	.	.	.	.	.	.
.	.	.	(8b/	.	(8dd\	.	.	.	.	.	.	.	.	.
.	.	.	8g#/)	.	8b\)	.	.	.	.	.	.	.	.	.
.	.	.	(8b/	.	(8dd\	.	.	.	.	.	.	.	.	.
.	.	.	8g#/J)	.	8b\J)	.	.	.	.	.	.	.	.	.
!	!	!	!LO:PB:g=original	!	!	!	!	!	!	!	!	!	!	!
=66	=66	=66	=66	=66	=66	=66	=66	=66	=66	=66	=66	=66	=66	=66
2.ryy	.	.	8r	.	8r	.	2.ryy	2.ryy	2.ryy	.	.	.	2.ryy	2.ryy
!	!	!	!	!LO:DY:t=po	!	!LO:DY:t=po	!	!	!	!	!	!	!	!
.	.	.	8c#X/	p	8e/	p	.	.	.	.	.	.	.	.
.	.	.	(8e/L	.	(8cc#X\L	.	.	.	.	.	.	.	.	.
.	.	.	8d/)	.	8b\	.	.	.	.	.	.	.	.	.
.	.	.	(8B/	.	8g#X\	.	.	.	.	.	.	.	.	.
.	.	.	8c#X/J)	.	8a\J)	.	.	.	.	.	.	.	.	.
=67	=67	=67	=67	=67	=67	=67	=67	=67	=67	=67	=67	=67	=67	=67
!	!	!	!LO:TX:a:t=P:problem:mixed beam	!	!	!	!	!	!	!	!	!	!	!
2.ryy	.	.	12d/L	f	12a\L	f	2.ryy	2.ryy	2.ryy	.	.	.	2.ryy	2.ryy
.	.	.	12dd\	.	12ff#\	.	.	.	.	.	.	.	.	.
.	.	.	12dd\J	.	12ff#\J	.	.	.	.	.	.	.	.	.
.	.	.	12dd\L	.	12ff#\L	.	.	.	.	.	.	.	.	.
.	.	.	12a\	.	12dd\	.	.	.	.	.	.	.	.	.
.	.	.	12f#\J	.	12a\J	.	.	.	.	.	.	.	.	.
.	.	.	8qqf#/	.	8qqa/	.	.	.	.	.	.	.	.	.
.	.	.	4g/	.	4b\	.	.	.	.	.	.	.	.	.
=68	=68	=68	=68	=68	=68	=68	=68	=68	=68	=68	=68	=68	=68	=68
!	!	!	!LO:TX:a:t=P:problem:mixed beam	!	!	!	!	!	!	!LO:N:vis=00	!	!	!	!
2.ryy	.	.	12f#/L	.	12a\L	.	2.ryy	2.ryy	2.ryy	0.r	.	.	2.ryy	2.ryy
.	.	.	12dd\	.	12ff#\	.	.	.	.	.	.	.	.	.
.	.	.	12dd\J	.	12ff#\J	.	.	.	.	.	.	.	.	.
.	.	.	12dd\L	.	12ff#\L	.	.	.	.	.	.	.	.	.
.	.	.	12a\	.	12dd\	.	.	.	.	.	.	.	.	.
.	.	.	12f#\J	.	12a\J	.	.	.	.	.	.	.	.	.
.	.	.	8qqf#/	.	8qqa/	.	.	.	.	.	.	.	.	.
.	.	.	4e/	.	4g/	.	.	.	.	.	.	.	.	.
!	!	!	!	!	!LO:LB:g=original	!	!	!	!	!	!	!	!	!
=69	=69	=69	=69	=69	=69	=69	=69	=69	=69	=69	=69	=69	=69	=69
!	!	!	!	!	!LO:TUP:b:problem:klamra łukowa	!	!	!	!	!	!	!	!	!
2.ryy	.	.	4d/	.	12f#/L	.	2.ryy	2.ryy	2.ryy	.	.	.	2.ryy	2.ryy
.	.	.	.	.	12e/	.	.	.	.	.	.	.	.	.
.	.	.	.	.	12d/J	.	.	.	.	.	.	.	.	.
.	.	.	.	.	8qqd/	.	.	.	.	.	.	.	.	.
.	.	.	4d/	.	2e/	.	.	.	.	.	.	.	.	.
.	.	.	4c/	.	.	.	.	.	.	.	.	.	.	.
=70	=70	=70	=70	=70	=70	=70	=70	=70	=70	=70	=70	=70	=70	=70
!	!	!	!LO:TX:a:t=P:problem:mixed beam	!LO:DY:t=po	!LO:TX:a:t=P:problem:mixed beam	!	!	!	!	!	!	!	!	!
2.ryy	.	.	12d/L	p	12d/L	.	2.ryy	2.ryy	2.ryy	.	.	.	2.ryy	2.ryy
!	!	!	!	!	!	!LO:DY:t=po	!	!	!	!	!	!	!	!
.	.	.	12dd\	.	12ff#\	p	.	.	.	.	.	.	.	.
.	.	.	12dd\J	.	12ff#\J	.	.	.	.	.	.	.	.	.
.	.	.	12dd\L	.	12ff#\L	.	.	.	.	.	.	.	.	.
.	.	.	12a\	.	12dd\	.	.	.	.	.	.	.	.	.
.	.	.	12f#\J	.	12a\J	.	.	.	.	.	.	.	.	.
.	.	.	8qqf#/	.	8qqa/	.	.	.	.	.	.	.	.	.
.	.	.	4g/	.	4b\	.	.	.	.	.	.	.	.	.
=71	=71	=71	=71	=71	=71	=71	=71	=71	=71	=71	=71	=71	=71	=71
!	!	!	!LO:TX:a:t=P:problem:mixed beam	!	!	!	!	!	!	!	!	!	!	!
2.ryy	.	.	12f#/L	.	12a\L	.	2.ryy	2.ryy	2.ryy	.	.	.	2.ryy	2.ryy
.	.	.	12dd\	.	12ff#\	.	.	.	.	.	.	.	.	.
.	.	.	12dd\J	.	12ff#\J	.	.	.	.	.	.	.	.	.
.	.	.	12dd\L	.	12ff#\L	.	.	.	.	.	.	.	.	.
.	.	.	12a\	.	12dd\	.	.	.	.	.	.	.	.	.
.	.	.	12f#\J	.	12a\J	.	.	.	.	.	.	.	.	.
.	.	.	8qqf#/	.	8qqa/	.	.	.	.	.	.	.	.	.
.	.	.	4e/	.	4g/	.	.	.	.	.	.	.	.	.
=72	=72	=72	=72	=72	=72	=72	=72	=72	=72	=72	=72	=72	=72	=72
!	!	!	!LO:TUP:a:problem:klamra łukowa	!	!	!	!	!	!	!	!	!	!	!
!	!	!	!LO:TX:a:t=P:problem:mixed beam	!	!LO:TX:a:t=P:problem:mixed beam	!	!	!	!	!LO:N:vis=0	!	!	!	!
2.ryy	.	.	24d/LL	.	24f#/LL	f	2.ryy	2.ryy	2.ryy	1.r	.	.	2.ryy	2.ryy
.	.	.	24aa\	.	24aa\	.	.	.	.	.	.	.	.	.
.	.	.	24gg\JJ	.	(24gg\JJ	.	.	.	.	.	.	.	.	.
!	!	!	!LO:TUP:a:problem:klamra łukowa	!	!	!	!	!	!	!	!	!	!	!
.	.	.	24ff#\LL	.	24ff#\LL)	.	.	.	.	.	.	.	.	.
.	.	.	24ee\	.	(24ee\	.	.	.	.	.	.	.	.	.
.	.	.	24dd\JJ	.	24dd\JJ)	.	.	.	.	.	.	.	.	.
!	!	!	!LO:LB:g=original	!	!	!	!	!	!	!	!	!	!	!
.	.	.	4a/	.	4a/	.	.	.	.	.	.	.	.	.
.	.	.	.	.	(16qqdd\LL	.	.	.	.	.	.	.	.	.
.	.	.	.	.	16qqee\JJ)	.	.	.	.	.	.	.	.	.
.	.	.	4eeT\	.	4eeT\	.	.	.	.	.	.	.	.	.
=73	=73	=73	=73	=73	=73	=73	=73	=73	=73	=73	=73	=73	=73	=73
2.ryy	.	.	4dd\	.	4dd\	.	2.ryy	2.ryy	2.ryy	.	.	.	2.ryy	2.ryy
.	.	.	4d/	.	4d/	.	.	.	.	.	.	.	.	.
.	.	.	4r	.	4r	.	.	.	.	.	.	.	.	.
=74	=74	=74	=74	=74	=74	=74	=74	=74	=74	=74	=74	=74	=74	=74
!	!	!	!	!LO:DY:t=po	!	!	!	!	!	!	!	!LO:DY:a:t=pia	!	!
8r	.	.	8r	p	8r	.	2.ryy	2.ryy	2.ryy	2dd\	Be-	p	2.ryy	2.ryy
!	!	!	!	!	!	!LO:DY:t=po	!	!	!	!	!	!	!	!
8D\L	.	.	8f#/L	.	8a/L	p	.	.	.	.	.	.	.	.
8D\	.	.	8f#/	.	8a/	.	.	.	.	.	.	.	.	.
8D\	.	.	8f#/	.	8a/	.	.	.	.	.	.	.	.	.
!	!	!	!	!	!	!	!	!	!	!LO:TUP:a:problem:klamra łukowa	!	!	!	!
8D\	.	.	8f#/	.	8a/	.	.	.	.	12cc#X\L	-ne-	.	.	.
.	.	.	.	.	.	.	.	.	.	12b\	.	.	.	.
8D\J	.	.	8f#/J	.	8a/J	.	.	.	.	.	.	.	.	.
.	.	.	.	.	.	.	.	.	.	12a\J	.	.	.	.
=75	=75	=75	=75	=75	=75	=75	=75	=75	=75	=75	=75	=75	=75	=75
.	.	.	.	.	.	.	.	.	.	8qqa/	.	.	.	.
8D\L	6 4	.	8g/L	.	8b/L	.	2.ryy	2.ryy	2.ryy	4b\	-di-	.	2.ryy	2.ryy
8D\	.	.	8g/	.	8b/	.	.	.	.	.	.	.	.	.
8D\	5 3	.	8f#/	.	8a/	.	.	.	.	4a\	-ctuſ	.	.	.
8D\	.	.	8f#/	.	8a/	.	.	.	.	.	.	.	.	.
8D\	.	.	8f#/	.	8a/	.	.	.	.	8r	.	.	.	.
8D\J	.	.	8f#/J	.	8a/J	.	.	.	.	8a\	qui	.	.	.
=76	=76	=76	=76	=76	=76	=76	=76	=76	=76	=76	=76	=76	=76	=76
8D\L	6_ 4_	.	8r	.	8r	.	2.ryy	2.ryy	2.ryy	4b\	ve-	.	2.ryy	2.ryy
8D\	.	.	8g/L	.	8b/L	.	.	.	.	.	.	.	.	.
8D\	.	.	8g/	.	8b/	.	.	.	.	4gg\	-nit	.	.	.
8D\	.	.	8g/	.	8b/	.	.	.	.	.	.	.	.	.
8D\	.	.	8g/	.	8b/	.	.	.	.	4b\	in	.	.	.
8D\J	.	.	8g/J	.	8b/J	.	.	.	.	.	.	.	.	.
!	!	!	!	!	!LO:LB:g=original	!	!	!	!	!	!	!	!	!
=77	=77	=77	=77	=77	=77	=77	=77	=77	=77	=77	=77	=77	=77	=77
8D\L	5_ 3_	.	8f#/L	.	8a\L	.	2.ryy	2.ryy	2.ryy	8a\L	no-	.	2.ryy	2.ryy
8D\	.	.	8f#/	.	8a\	.	.	.	.	8dd\J	.	.	.	.
8D\	.	.	8a/	.	8dd\	.	.	.	.	[2ff#\	.	.	.	.
8D\	.	.	8a/	.	8dd\	.	.	.	.	.	.	.	.	.
8D\	.	.	8dd/	.	8ff#\	.	.	.	.	.	.	.	.	.
8D\J	.	.	8dd/J	.	8ff#\J	.	.	.	.	.	.	.	.	.
!LO:LB:g=original	!	!	!	!	!	!	!	!	!	!	!	!	!	!
=78	=78	=78	=78	=78	=78	=78	=78	=78	=78	=78	=78	=78	=78	=78
!LO:TX:a:t=P:problem:mixed beam	!	!	!LO:TX:a:t=P:problem:mixed beam	!	!LO:TX:a:t=P:problem:mixed beam	!	!	!	!	!	!	!	!	!
8A\L	6_ 4_	.	8dd\L	.	8ff#\L	.	2.ryy	2.ryy	2.ryy	4ff#\]	.	.	2.ryy	2.ryy
8A\	.	.	8dd\	.	8ff#\	.	.	.	.	.	.	.	.	.
8AA/	x #	.	8cc#X\	.	8ee\	.	.	.	.	12ee\L	.	.	.	.
.	.	.	.	.	.	.	.	.	.	12dd\	.	.	.	.
8AA/	.	.	8cc#\	.	8ee\	.	.	.	.	.	.	.	.	.
.	.	.	.	.	.	.	.	.	.	12cc#X\J	.	.	.	.
8AA/	.	.	8e/	.	8g/	.	.	.	.	12b\L	.	.	.	.
.	.	.	.	.	.	.	.	.	.	12a\	.	.	.	.
8AA/J	.	.	8e/J	.	8g/J	.	.	.	.	.	.	.	.	.
.	.	.	.	.	.	.	.	.	.	12g\J	.	.	.	.
=79	=79	=79	=79	=79	=79	=79	=79	=79	=79	=79	=79	=79	=79	=79
8D\L	.	.	4e/	.	4g/	.	2.ryy	2.ryy	2.ryy	8.g/	.	.	2.ryy	2.ryy
8D\	.	.	.	.	.	.	.	.	.	.	.	.	.	.
.	.	.	.	.	.	.	.	.	.	16f#/	-mi-	.	.	.
8D\	.	.	4d/	.	4f#/	.	.	.	.	4f#/	-ne	.	.	.
8D\	.	.	.	.	.	.	.	.	.	.	.	.	.	.
8D\	.	.	4r	.	4r	.	.	.	.	8r	.	.	.	.
8D\J	.	.	.	.	.	.	.	.	.	8dd\	in	.	.	.
!	!	!	!LO:LB:g=original	!	!	!	!	!	!	!	!	!	!	!
=80	=80	=80	=80	=80	=80	=80	=80	=80	=80	=80	=80	=80	=80	=80
4D\	.	.	8r	.	8r	.	2.ryy	2.ryy	2.ryy	[<2.dd\	no-	.	2.ryy	2.ryy
.	.	.	(8ff#\L	.	8ddd\L|	.	.	.	.	.	.	.	.	.
4r	.	.	8ee\	.	(8ccc#X\	.	.	.	.	.	.	.	.	.
.	.	.	8ff#\)	.	8ddd\)	.	.	.	.	.	.	.	.	.
4r	.	.	(8gg\	.	8bb\|	.	.	.	.	.	.	.	.	.
.	.	.	8ff#\J)	.	8aa\J|	.	.	.	.	.	.	.	.	.
!	!	!	!	!	!	!	!	!	!	!LO:LB:g=original	!	!	!	!
=81	=81	=81	=81	=81	=81	=81	=81	=81	=81	=81	=81	=81	=81	=81
4F#\	.	.	8r	.	8r	.	2.ryy	2.ryy	2.ryy	2.ddT\_<	.	.	2.ryy	2.ryy
.	.	.	8aa\L|	.	8cccn'\L	.	.	.	.	.	.	.	.	.
4r	.	.	(8gg\	.	(8bb\	.	.	.	.	.	.	.	.	.
.	.	.	8aa\	.	8ccc\)	.	.	.	.	.	.	.	.	.
4r	.	.	8ff#\)	.	8aa\|	.	.	.	.	.	.	.	.	.
.	.	.	8dd\J	.	8ff#\J|	.	.	.	.	.	.	.	.	.
=82	=82	=82	=82	=82	=82	=82	=82	=82	=82	=82	=82	=82	=82	=82
4G\	.	.	8r	.	8r	.	2.ryy	2.ryy	2.ryy	2dd\]	.	.	2.ryy	2.ryy
.	.	.	8gg\L|	.	(8bb\L	.	.	.	.	.	.	.	.	.
4r	.	.	(8ff#\	.	8aa\	.	.	.	.	.	.	.	.	.
.	.	.	8gg\	.	8bb\J)	.	.	.	.	.	.	.	.	.
4GG/	.	.	8b\)	.	8.gg\L	.	.	.	.	8dd\	.	.	.	.
.	.	.	8g\J	.	.	.	.	.	.	16gg\	-mi-	.	.	.
.	.	.	.	.	16b\Jk	.	.	.	.	16bt\	-ne	.	.	.
=83	=83	=83	=83	=83	=83	=83	=83	=83	=83	=83	=83	=83	=83	=83
!LO:TX:a:t=P:problem:mixed beam	!	!	!	!	!	!	!	!	!	!	!	!	!	!
8D/L	.	.	4gT/	.	4b/	.	2.ryy	2.ryy	2.ryy	8.b\	Do-	.	2.ryy	2.ryy
(>8d\	.	.	.	.	.	.	.	.	.	.	.	.	.	.
.	.	.	.	.	.	.	.	.	.	16a\	-mi-	.	.	.
8c#X\	.	.	4f#/	.	4a/	.	.	.	.	4a\	-ni	.	.	.
8d\J)	.	.	.	.	.	.	.	.	.	.	.	.	.	.
4D\	.	.	4r	.	4r	.	.	.	.	4r	.	.	.	.
=84	=84	=84	=84	=84	=84	=84	=84	=84	=84	=84	=84	=84	=84	=84
8r	.	.	8r	.	2.gg\	.	2.ryy	2.ryy	2.ryy	2.gg\	Be-	.	2.ryy	2.ryy
8G\L	.	.	8b\L|	.	.	.	.	.	.	.	.	.	.	.
8B\	.	.	(8dd\	.	.	.	.	.	.	.	.	.	.	.
8G\	.	.	8b\	.	.	.	.	.	.	.	.	.	.	.
8B\	.	.	8dd\	.	.	.	.	.	.	.	.	.	.	.
8G\J	.	.	8b\J)	.	.	.	.	.	.	.	.	.	.	.
=85	=85	=85	=85	=85	=85	=85	=85	=85	=85	=85	=85	=85	=85	=85
.	.	.	.	.	8qqdd/	.	.	.	.	8qqdd/	.	.	.	.
8r	.	.	8r	.	2.ccT\	.	2.ryy	2.ryy	2.ryy	2.cc\	-ne-	.	2.ryy	2.ryy
8F#\L	.	.	8a/L|	.	.	.	.	.	.	.	.	.	.	.
8D\	.	.	8f#/	.	.	.	.	.	.	.	.	.	.	.
8F#\	.	.	(8a/	.	.	.	.	.	.	.	.	.	.	.
8D\	.	.	8f#/	.	.	.	.	.	.	.	.	.	.	.
8F#\J	.	.	8a/J)	.	.	.	.	.	.	.	.	.	.	.
!	!	!	!	!	!LO:LB:g=original	!	!	!	!	!	!	!	!	!
=86	=86	=86	=86	=86	=86	=86	=86	=86	=86	=86	=86	=86	=86	=86
4G\	.	.	8g/	.	8b\	.	2.ryy	2.ryy	2.ryy	8b\L	-di-	.	2.ryy	2.ryy
.	.	.	4a/	.	4cc\	.	.	.	.	8cc\J	.	.	.	.
4r	.	.	.	.	.	.	.	.	.	8cc\L	-ctus	.	.	.
.	.	.	4b/	.	4dd\	.	.	.	.	8dd\J	.	.	.	.
4C/	.	.	.	.	.	.	.	.	.	(8dd\L	qui	.	.	.
.	.	.	8g/	.	8ee\	.	.	.	.	8ee\J)	.	.	.	.
!	!	!	!LO:LB:g=original	!	!	!	!	!	!	!	!	!	!	!
=87	=87	=87	=87	=87	=87	=87	=87	=87	=87	=87	=87	=87	=87	=87
.	.	.	.	.	8qqg/	.	.	.	.	8qqg/	.	.	.	.
4D/	.	.	4c/	.	4f#/	.	2.ryy	2.ryy	2.ryy	4f#/	ve-	.	2.ryy	2.ryy
4GG/	.	.	4B/	.	4g/	.	.	.	.	4g/	-nit	.	.	.
4r	.	.	4r	.	4dd\	.	.	.	.	4dd\	qui	.	.	.
!LO:LB:g=original	!	!	!	!	!	!	!	!	!	!	!	!	!	!
=88	=88	=88	=88	=88	=88	=88	=88	=88	=88	=88	=88	=88	=88	=88
8r	.	.	8r	.	2.gg\	.	2.ryy	2.ryy	2.ryy	2.gg\	ve-	.	2.ryy	2.ryy
8G\L	.	.	8b\L|	.	.	.	.	.	.	.	.	.	.	.
8B\	.	.	(8dd\	.	.	.	.	.	.	.	.	.	.	.
8G\	.	.	8b\)	.	.	.	.	.	.	.	.	.	.	.
8B\	.	.	(8dd\	.	.	.	.	.	.	.	.	.	.	.
8G\J	.	.	8b\J)	.	.	.	.	.	.	.	.	.	.	.
!	!	!	!	!	!	!	!	!	!	!LO:LB:g=original	!	!	!	!
=89	=89	=89	=89	=89	=89	=89	=89	=89	=89	=89	=89	=89	=89	=89
.	.	.	.	.	8qqgg/	.	.	.	.	8qqgg/	.	.	.	.
8r	.	.	8r	.	2.ffnT\	.	2.ryy	2.ryy	2.ryy	2.ffn\	.	.	2.ryy	2.ryy
8B\L	.	.	8dd\L|	.	.	.	.	.	.	.	.	.	.	.
8G\	.	.	(8b\	.	.	.	.	.	.	.	.	.	.	.
8B\	.	.	8dd\)	.	.	.	.	.	.	.	.	.	.	.
8G\	.	.	(8b\	.	.	.	.	.	.	.	.	.	.	.
8B\J	.	.	8dd\J)	.	.	.	.	.	.	.	.	.	.	.
=90	=90	=90	=90	=90	=90	=90	=90	=90	=90	=90	=90	=90	=90	=90
4c\	.	.	8r	.	8r	.	2.ryy	2.ryy	2.ryy	4ee\	-nit	.	2.ryy	2.ryy
.	.	.	8cc\L|	.	8ee\L|	.	.	.	.	.	.	.	.	.
4r	.	.	(8ee\	.	(8gg\	.	.	.	.	4r	.	.	.	.
.	.	.	8cc\)	.	8ee\)	.	.	.	.	.	.	.	.	.
4r	.	.	(8ee\	.	(8gg\	.	.	.	.	4r	.	.	.	.
.	.	.	8cc\J)	.	8ee\J)	.	.	.	.	.	.	.	.	.
=91	=91	=91	=91	=91	=91	=91	=91	=91	=91	=91	=91	=91	=91	=91
4C/	.	.	8r	.	8r	.	2.ryy	2.ryy	2.ryy	4r	.	.	2.ryy	2.ryy
.	.	.	8e/L|	.	8g/L|	.	.	.	.	.	.	.	.	.
4r	.	.	(8c/	.	(8e/	.	.	.	.	4r	.	.	.	.
.	.	.	8e/)	.	8g/)	.	.	.	.	.	.	.	.	.
4r	.	.	(8c/	.	(8e/	.	.	.	.	4ee\	qui	.	.	.
.	.	.	8e/J)	.	8g/J)	.	.	.	.	.	.	.	.	.
=92	=92	=92	=92	=92	=92	=92	=92	=92	=92	=92	=92	=92	=92	=92
8r	.	.	8r	.	2.aa\	.	2.ryy	2.ryy	2.ryy	2.aa\	ve-	.	2.ryy	2.ryy
8A\L	.	.	8cc#X\L|	.	.	.	.	.	.	.	.	.	.	.
(8c#X\	.	.	(8ee\	.	.	.	.	.	.	.	.	.	.	.
8A\)	.	.	8cc#\)	.	.	.	.	.	.	.	.	.	.	.
(8c#\	.	.	(8ee\	.	.	.	.	.	.	.	.	.	.	.
8A\J)	.	.	8cc#\J)	.	.	.	.	.	.	.	.	.	.	.
=93	=93	=93	=93	=93	=93	=93	=93	=93	=93	=93	=93	=93	=93	=93
.	.	.	.	.	8qqaa/	.	.	.	.	.	.	.	.	.
8r	.	.	8r	.	2.ggT\	.	2.ryy	2.ryy	2.ryy	2.gg\	.	.	2.ryy	2.ryy
8C#X/L	.	.	8ee\L|	.	.	.	.	.	.	.	.	.	.	.
(8AA/	.	.	(8cc#X\	.	.	.	.	.	.	.	.	.	.	.
8C#/	.	.	8ee\)	.	.	.	.	.	.	.	.	.	.	.
8AA/	.	.	(8cc#\	.	.	.	.	.	.	.	.	.	.	.
8C#/J)	.	.	8ee\J)	.	.	.	.	.	.	.	.	.	.	.
!	!	!	!LO:LB:g=original	!	!	!	!	!	!	!	!	!	!	!
=94	=94	=94	=94	=94	=94	=94	=94	=94	=94	=94	=94	=94	=94	=94
4D\	.	.	8b\L|	.	8ff#\L|	.	2.ryy	2.ryy	2.ryy	4ff#X\	-nit	.	2.ryy	2.ryy
.	.	.	8dd\|	.	8ff#\|	.	.	.	.	.	.	.	.	.
4r	.	.	(8ff#\	.	(8aa\	.	.	.	.	4r	.	.	.	.
.	.	.	8dd\	.	8ff#\)	.	.	.	.	.	.	.	.	.
4r	.	.	8ff#\	.	(8aa\	.	.	.	.	4r	.	.	.	.
.	.	.	8dd\J)	.	8ff#\J)	.	.	.	.	.	.	.	.	.
!	!	!	!	!	!LO:LB:g=original	!	!	!	!	!	!	!	!	!
=95	=95	=95	=95	=95	=95	=95	=95	=95	=95	=95	=95	=95	=95	=95
4DD/	.	.	8r	.	8r	.	2.ryy	2.ryy	2.ryy	2.r	.	.	2.ryy	2.ryy
.	.	.	8f#/L|	.	8a/L|	.	.	.	.	.	.	.	.	.
4r	.	.	(8d/	.	(8f#/	.	.	.	.	.	.	.	.	.
.	.	.	8f#/	.	8a/)	.	.	.	.	.	.	.	.	.
4r	.	.	(8d/)	.	(8f#/	.	.	.	.	.	.	.	.	.
.	.	.	8f#/J)	.	8a/J)	.	.	.	.	.	.	.	.	.
=96	=96	=96	=96	=96	=96	=96	=96	=96	=96	=96	=96	=96	=96	=96
8r	.	.	8r	.	2.dd\	.	2.ryy	2.ryy	2.ryy	2.dd\	in	.	2.ryy	2.ryy
8D\L	.	.	8f#/L	.	.	.	.	.	.	.	.	.	.	.
8D\	.	.	8f#/	.	.	.	.	.	.	.	.	.	.	.
8D\	.	.	8f#/	.	.	.	.	.	.	.	.	.	.	.
8D\	.	.	8f#/	.	.	.	.	.	.	.	.	.	.	.
8D\J	.	.	8f#/J	.	.	.	.	.	.	.	.	.	.	.
!LO:LB:g=original	!	!	!	!	!	!	!	!	!	!	!	!	!	!
=97	=97	=97	=97	=97	=97	=97	=97	=97	=97	=97	=97	=97	=97	=97
8D\L	-6 4	.	8r	.	2bb-X\	.	2.ryy	2.ryy	2.ryy	2bb-X\	no-	.	2.ryy	2.ryy
8D\	.	.	8g/L	.	.	.	.	.	.	.	.	.	.	.
8D\	.	.	8g/	.	.	.	.	.	.	.	.	.	.	.
8D\	.	.	8g/	.	.	.	.	.	.	.	.	.	.	.
8D\	-6 4	.	8g/	.	4cc#X\	.	.	.	.	4cc#X\	.	.	.	.
8D\J	.	.	8g/J	.	.	.	.	.	.	.	.	.	.	.
=98	=98	=98	=98	=98	=98	=98	=98	=98	=98	=98	=98	=98	=98	=98
8D\L	8 3_	.	8f#/	.	8dd\	.	2.ryy	2.ryy	2.ryy	[2dd\	.	.	2.ryy	2.ryy
8D\	.	.	4d/	.	4f#/	.	.	.	.	.	.	.	.	.
8D\	.	.	.	.	.	.	.	.	.	.	.	.	.	.
8D\	.	.	8e/L	.	8g/L	.	.	.	.	.	.	.	.	.
8D\	-6 4	.	8f#/	.	8a/	.	.	.	.	8dd\]	.	.	.	.
8D\J	.	.	8g/J	.	8b-X/J	.	.	.	.	16gg\	-mi-	.	.	.
.	.	.	.	.	.	.	.	.	.	16b-X\	-ne	.	.	.
=99	=99	=99	=99	=99	=99	=99	=99	=99	=99	=99	=99	=99	=99	=99
4D\	-6 4	.	4g/	.	4b-XT/	.	2.ryy	2.ryy	2.ryy	8.b\	Do-	.	2.ryy	2.ryy
.	.	.	.	.	.	.	.	.	.	16a\	-mi-	.	.	.
8.D\L	5 3	.	4f#/	.	4a/	.	.	.	.	4a\	-ni	.	.	.
16d\K	.	.	.	.	.	.	.	.	.	.	.	.	.	.
8.A\	.	.	4r	.	4r	.	.	.	.	4r	.	.	.	.
16F#\Jk	.	.	.	.	.	.	.	.	.	.	.	.	.	.
!	!	!	!	!	!	!	!	!	!	!LO:LB:g=original	!	!	!	!
=100	=100	=100	=100	=100	=100	=100	=100	=100	=100	=100	=100	=100	=100	=100
8D\L	.	.	8r	.	[4dd\	.	2.ryy	2.ryy	2.ryy	2.dd\	be-	.	2.ryy	2.ryy
8D\	.	.	8f#/L	.	.	.	.	.	.	.	.	.	.	.
8D\	.	.	8f#/	.	16dd\LL]	.	.	.	.	.	.	.	.	.
.	.	.	.	.	(16dd\	.	.	.	.	.	.	.	.	.
8D\	.	.	8f#/	.	16cc#X\	.	.	.	.	.	.	.	.	.
.	.	.	.	.	16dd\JJ)	.	.	.	.	.	.	.	.	.
8D\	.	.	8f#/	.	(16cc#\LL	.	.	.	.	.	.	.	.	.
.	.	.	.	.	16dd\	.	.	.	.	.	.	.	.	.
8D\J	.	.	8f#/J	.	16cc#\	.	.	.	.	.	.	.	.	.
.	.	.	.	.	16dd\JJ)	.	.	.	.	.	.	.	.	.
!	!	!	!LO:LB:g=original	!	!	!	!	!	!	!	!	!	!	!
=101	=101	=101	=101	=101	=101	=101	=101	=101	=101	=101	=101	=101	=101	=101
8r	.	.	8r	.	2bb-X\	.	2.ryy	2.ryy	2.ryy	2bb-X\	.	.	2.ryy	2.ryy
8D\L	-6 4	.	8g/L	.	.	.	.	.	.	.	.	.	.	.
8D\	.	.	8g/	.	.	.	.	.	.	.	.	.	.	.
8D\	.	.	8g/	.	.	.	.	.	.	.	.	.	.	.
8D\	-6 4	.	8g/	.	4cc#X\	.	.	.	.	4cc#X\	-ne-	.	.	.
8D\J	.	.	8g/J	.	.	.	.	.	.	.	.	.	.	.
=102	=102	=102	=102	=102	=102	=102	=102	=102	=102	=102	=102	=102	=102	=102
!	!	!	!	!	!LO:TX:a:t=P:problem:mixed beam	!	!	!	!	!	!	!	!	!
4D\	.	.	8f#/L	.	8dd\L	.	2.ryy	2.ryy	2.ryy	[2dd\	-di-	.	2.ryy	2.ryy
.	.	.	8d/J	.	8f#/J	.	.	.	.	.	.	.	.	.
!	!	!	!	!	!LO:LB:g=original	!	!	!	!	!	!	!	!	!
4r	.	.	(16d/LL	.	(16f#/LL	.	.	.	.	.	.	.	.	.
.	.	.	16e/)	.	16g/)	.	.	.	.	.	.	.	.	.
.	.	.	(16e/	.	(16g/	.	.	.	.	.	.	.	.	.
.	.	.	16f#/JJ)	.	16a/JJ)	.	.	.	.	.	.	.	.	.
4D\	.	.	(16f#/LL	.	(16a/LL	.	.	.	.	8dd\]	.	.	.	.
.	.	.	16g/)	.	16b-X/)	.	.	.	.	.	.	.	.	.
.	.	.	(16g/	.	(16b-/	.	.	.	.	16gg\	-ctuſ	.	.	.
.	.	.	16a/JJ)	.	16cc/JJ)	.	.	.	.	16cc\	qui	.	.	.
=103	=103	=103	=103	=103	=103	=103	=103	=103	=103	=103	=103	=103	=103	=103
.	.	.	8qqa/	.	8qqcc/	.	.	.	.	8qqcc/	.	.	.	.
4C#X\	-7	.	4g/	.	4b-X/	.	2.ryy	2.ryy	2.ryy	8.b-X\	ve-	.	2.ryy	2.ryy
.	.	.	.	.	.	.	.	.	.	16a\	.	.	.	.
4D\	.	.	4f#/	.	4a/	.	.	.	.	4a\	-nit	.	.	.
4DD/	.	.	4r	.	4r	.	.	.	.	4r	.	.	.	.
=104	=104	=104	=104	=104	=104	=104	=104	=104	=104	=104	=104	=104	=104	=104
!	!	!	!LO:TX:a:t=P:problem:mixed beam	!	!LO:TX:a:t=P:problem:mixed beam	!	!	!	!	!	!	!	!	!
4GG/	.	.	12g/L	.	12g/L	.	2.ryy	2.ryy	2.ryy	8r	.	.	2.ryy	2.ryy
.	.	.	12gg\	.	12bbn\	.	.	.	.	.	.	.	.	.
.	.	.	.	.	.	.	.	.	.	8gg\	qui	.	.	.
.	.	.	12gg\J	.	12bb\J	.	.	.	.	.	.	.	.	.
4GG/	.	.	12gg\L	.	12bb\L	.	.	.	.	8gg\L	ve-	.	.	.
.	.	.	12dd\	.	12gg\	.	.	.	.	.	.	.	.	.
.	.	.	.	.	.	.	.	.	.	8dd\J	.	.	.	.
.	.	.	12b\J	.	12dd\J	.	.	.	.	.	.	.	.	.
.	.	.	8qqb/	.	8qqdd/	.	.	.	.	8qqdd/	.	.	.	.
4GG/	.	.	4cc\	.	4ee\	.	.	.	.	4ee\	.	.	.	.
=105	=105	=105	=105	=105	=105	=105	=105	=105	=105	=105	=105	=105	=105	=105
4GG/	.	.	12b\L	.	12dd\L	.	2.ryy	2.ryy	2.ryy	8dd\	-nit	.	2.ryy	2.ryy
.	.	.	12gg\	.	12bb\	.	.	.	.	.	.	.	.	.
.	.	.	.	.	.	.	.	.	.	8gg\	in	.	.	.
.	.	.	12gg\J	.	12bb\J	.	.	.	.	.	.	.	.	.
4G\	.	.	12gg\L	.	12bb\L	.	.	.	.	8gg\L	no-	.	.	.
.	.	.	12dd\	.	12gg\	.	.	.	.	.	.	.	.	.
.	.	.	.	.	.	.	.	.	.	8dd\J	.	.	.	.
.	.	.	12b\J	.	12dd\J	.	.	.	.	.	.	.	.	.
.	.	.	8qqb/	.	8qqdd/	.	.	.	.	8qqdd/	.	.	.	.
4F#\	.	.	4a/	.	4cc\	.	.	.	.	4cc\	.	.	.	.
=106	=106	=106	=106	=106	=106	=106	=106	=106	=106	=106	=106	=106	=106	=106
.	.	.	.	.	.	.	.	.	.	8qqcc/	.	.	.	.
!	!	!	!	!	!LO:TUP:b:problem:klamra łukowa	!	!	!	!	!	!	!	!	!
4G\	.	.	4g/	.	12b/L	.	2.ryy	2.ryy	2.ryy	8b\	.	.	2.ryy	2.ryy
.	.	.	.	.	12a/	.	.	.	.	.	.	.	.	.
.	.	.	.	.	.	.	.	.	.	16a\	-mi-	.	.	.
.	.	.	.	.	12g/J	.	.	.	.	.	.	.	.	.
.	.	.	.	.	.	.	.	.	.	16g\	-ne	.	.	.
!	!	!	!	!	!	!	!	!	!	!LO:LB:g=original	!	!	!	!
.	.	.	.	.	8qqg/	.	.	.	.	8qqg/	.	.	.	.
4d\	.	.	4g/	.	2a/	.	.	.	.	4.a\	Do-	.	.	.
4D/	.	.	4f#/	.	.	.	.	.	.	.	.	.	.	.
.	.	.	.	.	.	.	.	.	.	8g\	-mi-	.	.	.
!LO:LB:g=original	!	!	!	!	!	!	!	!	!	!	!	!	!	!
=107	=107	=107	=107	=107	=107	=107	=107	=107	=107	=107	=107	=107	=107	=107
!	!	!	!LO:TX:a:t=P:problem:mixed beam	!LO:DY:t=pio	!LO:TX:a:t=P:problem:mixed beam	!LO:DY:t=pio	!	!	!	!	!	!	!	!
4G\	.	.	12g/L	p	12g/L	p	2.ryy	2.ryy	2.ryy	8g\	-ni	.	2.ryy	2.ryy
.	.	.	12gg\	.	12bb\	.	.	.	.	.	.	.	.	.
.	.	.	.	.	.	.	.	.	.	8gg\	qui	.	.	.
.	.	.	12gg\J	.	12bb\J	.	.	.	.	.	.	.	.	.
!	!	!	!LO:LB:g=original	!	!	!	!	!	!	!	!	!	!	!
4G\	.	.	12gg\L	.	12bb\L	.	.	.	.	8gg\L	ve-	.	.	.
.	.	.	12dd\	.	12gg\	.	.	.	.	.	.	.	.	.
.	.	.	.	.	.	.	.	.	.	8dd\J	.	.	.	.
.	.	.	12b\J	.	12dd\J	.	.	.	.	.	.	.	.	.
.	.	.	8qqb/	.	8qqdd/	.	.	.	.	8qqdd/	.	.	.	.
4G\	.	.	4ccT\	.	4ee\	.	.	.	.	4ee\	.	.	.	.
!	!	!	!	!	!LO:LB:g=original	!	!	!	!	!	!	!	!	!
=108	=108	=108	=108	=108	=108	=108	=108	=108	=108	=108	=108	=108	=108	=108
4G\	.	.	12b\L	.	12dd\L	.	2.ryy	2.ryy	2.ryy	8dd\	.	.	2.ryy	2.ryy
.	.	.	12gg\	.	12bb\	.	.	.	.	.	.	.	.	.
.	.	.	.	.	.	.	.	.	.	4gg\	.	.	.	.
.	.	.	12gg\J	.	12bb\J	.	.	.	.	.	.	.	.	.
4G\	.	.	12gg\L	.	12bb\L	.	.	.	.	.	.	.	.	.
.	.	.	12dd\	.	12gg\	.	.	.	.	.	.	.	.	.
.	.	.	.	.	.	.	.	.	.	8dd\	.	.	.	.
.	.	.	12b\J	.	12dd\J	.	.	.	.	.	.	.	.	.
.	.	.	8qqb/	.	8qqdd/	.	.	.	.	8qqdd/	.	.	.	.
4F#\	.	.	4a/	.	4cc\	.	.	.	.	8.cc\	-nit	.	.	.
.	.	.	.	.	.	.	.	.	.	16cc\	in	.	.	.
=109	=109	=109	=109	=109	=109	=109	=109	=109	=109	=109	=109	=109	=109	=109
.	.	.	.	.	.	.	.	.	.	8qqcc/	.	.	.	.
!	!	!	!	!	!LO:TUP:b:problem:klamra łukowa	!	!	!	!	!	!	!	!	!
4G\	.	.	4g/	.	12b/L	.	2.ryy	2.ryy	2.ryy	8b\	no-	.	2.ryy	2.ryy
.	.	.	.	.	12a/	.	.	.	.	.	.	.	.	.
.	.	.	.	.	.	.	.	.	.	16a\	-mi-	.	.	.
.	.	.	.	.	12g/J	.	.	.	.	.	.	.	.	.
.	.	.	.	.	.	.	.	.	.	16g\	-ne	.	.	.
.	.	.	.	.	8qqg/	.	.	.	.	8qqg/	.	.	.	.
4D\	.	.	4g/	.	2aT/	.	.	.	.	4.a\	Do-	.	.	.
4DD/	.	.	4f#/	.	.	.	.	.	.	.	.	.	.	.
.	.	.	.	.	.	.	.	.	.	8g\	-mi-	.	.	.
=110	=110	=110	=110	=110	=110	=110	=110	=110	=110	=110	=110	=110	=110	=110
*Xtuplet	*	*	*	*	*	*	*	*	*	*	*	*	*	*
!LO:TX:a:t=P:problem:mixed beam	!	!	!	!	!	!	!	!	!	!	!	!	!	!
12GG'>/L	.	.	12G/L	.	12G/L	.	2.ryy	2.ryy	2.ryy	4g/	-ni	.	2.ryy	2.ryy
12G'>\	.	.	12g/	.	12g/	.	.	.	.	.	.	.	.	.
12G'>\J	.	.	12g/J	.	12g/J	.	.	.	.	.	.	.	.	.
12G'\L	.	.	12g/L	.	12g/L	.	.	.	.	4r	.	.	.	.
12B'\	.	.	12b/	.	12b/	.	.	.	.	.	.	.	.	.
12G'\J	.	.	12g/J	.	12g/J	.	.	.	.	.	.	.	.	.
12E'\L	.	.	12e/L	.	12e/L	.	.	.	.	4r	.	.	.	.
12G'\	.	.	12g/	.	12g/	.	.	.	.	.	.	.	.	.
12C#X'\J	.	.	12c#X/J	.	12c#X/J	.	.	.	.	.	.	.	.	.
=111	=111	=111	=111	=111	=111	=111	=111	=111	=111	=111	=111	=111	=111	=111
*2\right	*	*	*	*	*	*	*	*	*	*	*	*	*	*
2.D;\	.	.	2.d;/	.	2.d;/	.	2.ryy	2.ryy	2.ryy	4g\	Do-	.	2.ryy	2.ryy
.	.	.	.	.	.	.	.	.	.	(4.a\	.	.	.	.
.	.	.	.	.	.	.	.	.	.	8g\)	-mi-	.	.	.
=112	=112	=112	=112	=112	=112	=112	=112	=112	=112	=112	=112	=112	=112	=112
!LO:TX:a:t=P:problem:mixed beam	!	!	!	!	!	!	!	!	!	!	!	!	!	!
12GG/L	.	.	2.G;/	.	2.G/	.	2.ryy	2.ryy	2.ryy	4g/	-ni:	.	2.ryy	2.ryy
12G\	.	.	.	.	.	.	.	.	.	.	.	.	.	.
12D\J	.	.	.	.	.	.	.	.	.	.	.	.	.	.
12BB/L	.	.	.	.	.	.	.	.	.	4r	.	.	.	.
12D/	.	.	.	.	.	.	.	.	.	.	.	.	.	.
12BB/J	.	.	.	.	.	.	.	.	.	.	.	.	.	.
!LO:TX:b:t=Dacapo	!	!	!LO:TX:b:i:t=Da Capo O ſan(n)a ùt ſuprà. \nIn Vesperis Benedict(us) 2b(us) vicib(us)	!	!LO:TX:b:t=Da Capo.	!	!	!	!	!LO:TX:b:t=O ſanna ut. Supra.	!	!	!	!
!	!	!	!	!	!LO:TX:b:i:t=In Vesperis\n Benedict(us) dula(us) vicib(us).	!	!	!	!	!	!	!	!	!
!	!	!	!	!	!LO:TX:b:i:t=O ſanna ùt ſuprà.	!	!	!	!	!	!	!	!	!
4GG/	.	.	.	.	.	.	.	.	.	4r	.	.	.	.
==	==	==	==	==	==	==	==	==	==	==	==	==	==	==
*-	*-	*-	*-	*-	*-	*-	*-	*-	*-	*-	*-	*-	*-	*-
!!!system-decoration: [g1][g2][g3]s9
!!!RDF**kern: > = above
!!!RDF**kern: < = below
!!!RDF**dynam: p = "p:"
!!!RDF**dynam: f = "for"
!!!ENC: Marta Lawrence
!!!END: 2020-11-14
!!!ENC: Berenika Jozajtis
!!!END: 2020-05-25
!!!RDF**kern: | = vertical stroke
